!!!!SEGMENT: pl-cz--i-10--004_engel-jan--requiem-sanctus-et-benedictus.krn
!!!cenid: 17xx:879
!!!COM: Engel, Jan
!!!COM-rismid: pe30009138
!!!CDT: <1772->1788
!!!CNT:
!!!OPR: Requiem
!!!OTL: Sanctus et Benedictus
!!!OMV: 004
!!!PDT:
!!!AGN: Sacred; Requiem
!!!SMS-siglum: PL-CZ
!!!SMS-shelfmark: I-10
!!!SMS-shelfwork: 001-004 M
!!!SMS-variant:
!!!SMS-altvar:
!!!NIFC-rismid: 300000291
!!!URL-scan: http://repozytorium.nifc.pl/skany/pl-cz-nut--i-10
!!!ONB-nifc: UWAGA: części Requiem: Requiem, Dies irae, Domine Jesu Christe, Sanctus et Benedictus, Osanna, Agnus Dei
!!!AIN: 1 alto 2 clars 4 empty 2 flt 1 tenor 2 viola 2 violn 1 vox
!!!key:
**kern	**dynam	**kern	**dynam	**kern	**dynam	**kern	**dynam	**kern	**dynam	**kern	**kern	**kern	**text	**kern	**kern	**kern	**kern	**dynam	**kern	**dynam	**kern	**dynam	**kern	**dynam
*part15	*part15	*part14	*part14	*part13	*part13	*part12	*part12	*part11	*part11	*part10	*part9	*part8	*part8	*part7	*part6	*part5	*part4	*part4	*part3	*part3	*part2	*part2	*part1	*part1
*staff15	*	*staff14	*	*staff13	*	*staff12	*	*staff11	*	*staff10	*staff9	*staff8	*	*staff7	*staff6	*staff5	*staff4	*	*staff3	*	*staff2	*	*staff1	*
*Iempty	*	*Iviola	*	*Iviola	*	*Ivioln	*	*Ivioln	*	*Iempty	*Itenor	*Ialto	*	*Ivox	*Iempty	*Iempty	*Iclars	*	*Iclars	*	*Iflt	*	*Iflt	*
*I"Fundamento.	*	*I"Viola IIda	*	*I"Viola 1mo	*	*I"Violino Secondo.	*	*I"Violino. Primo.	*	*I"Baſso.	*I"Tenore	*I"Alto.	*	*I"Canto.	*I"Cornu Secondo in Dis.	*I"Cornu Primo in Dis	*I"Clarinetto Secondo in B.	*	*I"Clarinetto Primo in B.	*	*I"Flauto Secondo.	*	*I"Flauto Primo	*
*I'org	*	*I'vla 2	*	*I'vla 1	*	*I'vl 2	*	*I'vl 1	*	*I'B	*I'T	*I'A	*	*I'S	*I'cor 2 in Dis	*I'cor 1 in Dis	*I'cl 2 in B	*	*I'cl 1 in B	*	*I'fl 2	*	*I'fl 1	*
*clefF4	*	*clefC3	*	*clefC3	*	*clefG2	*	*clefG2	*	*clefF4	*clefC4	*clefC3	*	*clefC1	*clefG2	*clefG2	*clefG2	*	*clefG2	*	*clefG2	*	*clefG2	*
*	*	*	*	*	*	*	*	*	*	*	*	*	*	*	*ITrd5c9	*ITrd5c9	*ITrd1c2	*	*ITrd1c2	*	*	*	*	*
*k[b-e-a-]	*	*k[b-e-a-]	*	*k[b-e-a-]	*	*k[b-e-a-]	*	*k[b-e-a-]	*	*k[b-e-a-]	*k[b-e-a-]	*k[b-e-a-]	*	*k[b-e-a-]	*k[b-e-a-]	*k[b-e-a-]	*k[b-e-a-]	*	*k[b-e-a-]	*	*k[b-e-a-]	*	*k[b-e-a-]	*
*E-:	*	*E-:	*	*E-:	*	*E-:	*	*E-:	*	*E-:	*E-:	*E-:	*	*E-:	*E-:	*E-:	*E-:	*	*E-:	*	*E-:	*	*E-:	*
*M3/8	*	*M3/8	*	*M3/8	*	*M3/8	*	*M3/8	*	*M3/8	*M3/8	*M3/8	*	*M3/8	*M3/8	*M3/8	*M3/8	*	*M3/8	*	*M3/8	*	*M3/8	*
=1	=1	=1	=1	=1	=1	=1	=1	=1	=1	=1	=1	=1	=1	=1	=1	=1	=1	=1	=1	=1	=1	=1	=1	=1
*	*	*	*	*	*	*	*below	*	*	*	*	*	*	*	*	*	*	*	*	*	*	*	*	*
!	!	!	!	!	!	!	!	!	!	!	!	!LO:TX:a:t=30.	!	!	!	!	!	!	!	!	!	!	!	!
!LO:TX:rj:i:a:t=Cantabile	!	!LO:TX:rj:i:a:t=Cantabile	!	!LO:TX:rj:i:a:t=Cantabile	!	!LO:TX:rj:i:a:t=Cantabile	!	!LO:TX:rj:i:a:t=Cantabile e piano	!	!LO:TX:a:t=Tacet	!LO:TX:a:t=Tacet	!LO:TX:rj:i:a:t=Cantabile	!	!LO:TX:a:t=Tacet	!LO:TX:a:t=Tacent.	!LO:TX:a:t=Tacet	!LO:TX:rj:i:a:t=Cantabile	!	!LO:TX:rj:i:a:t=Cantabile	!	!LO:TX:rj:i:a:t=Cantabile	!	!LO:TX:rj:i:a:t=Cantabile	!
!LO:TX:rj:i:b:t=Sanctus	!	!LO:TX:rj:i:b:t=Sanctus	!	!LO:TX:rj:i:b:t=Sanctus	!	!LO:TX:rj:i:b:t=Sanctus	!	!LO:TX:rj:i:b:t=Sanctus	!	!LO:TX:rj:i:b:t=Sanctus	!LO:TX:rj:i:b:t=SanctusLO:TX:rj:i:b:t=Sanctus	!LO:TX:rj:i:b:t=Sanctus	!	!LO:TX:rj:i:b:t=Sanctus	!	!	!LO:TX:rj:i:b:t=Sanctus	!	!LO:TX:rj:i:b:t=Sanctus	!	!LO:TX:rj:i:b:t=Sanctus	!	!LO:TX:rj:i:b:t=Sanctus	!
!	!LO:DY:b:t=pia&colon;	!	!LO:DY:b:t=piano	!	!	!	!	!	!	!	!	!LO:N:vis=00	!	!	!	!	!	!	!	!	!	!LO:DY:b:t=pia&colon;	!	!
8E-\L	p	16e-\LL	p	16g\LL	.	16e-/LL	.	16g/LL	.	4.ryy	4.ryy	1.r	.	4.ryy	4.ryy	4.ryy	16e-/LL	.	16a-/LL	.	16ee-\LL	p	16gg\LL	.
.	.	16f\JJ	.	16a-\J	.	16f/JJ	.	16a-/JJ	.	.	.	.	.	.	.	.	16f/JJ	.	16b-/JJ	.	16ff\JJ	.	16aa-\JJ	.
8E-\	.	8g\L	.	8b-\	.	8g/L	.	8b-/L	.	.	.	.	.	.	.	.	8g/L	.	8cc/L	.	8gg\L	.	8bb-\L	.
8BB-\J	.	8f\J	.	8a-\J	.	8f/J	.	8a-/J	.	.	.	.	.	.	.	.	8f/J	.	8b-/J	.	8ff\J	.	8aa-\J	.
=2	=2	=2	=2	=2	=2	=2	=2	=2	=2	=2	=2	=2	=2	=2	=2	=2	=2	=2	=2	=2	=2	=2	=2	=2
.	.	8qf/	.	8qa-/	.	8qf/	.	8qa-/	.	.	.	.	.	.	.	.	.	.	.	.	8qff/	.	8qaa-/	.
8EE-/L	.	4e-\	.	4g\	.	4e-/	.	4g/	.	4.ryy	4.ryy	.	.	4.ryy	4.ryy	4.ryy	16ee-\LL	.	16gg\LL	.	4ee-\	.	4gg\	.
.	.	.	.	.	.	.	.	.	.	.	.	.	.	.	.	.	16ff\JJ	.	16aa-\JJ	.	.	.	.	.
8EE-/	.	.	.	.	.	.	.	.	.	.	.	.	.	.	.	.	8gg\L	.	8bb-\L	.	.	.	.	.
8BB-/J	.	8r	.	8r	.	8r	.	8r	.	.	.	.	.	.	.	.	8ff\J	.	8aa-\J	.	8r	.	8r	.
=3	=3	=3	=3	=3	=3	=3	=3	=3	=3	=3	=3	=3	=3	=3	=3	=3	=3	=3	=3	=3	=3	=3	=3	=3
8E-\L	.	8g\L	.	8b-\L	.	8g/L	.	8b-\L	.	4.ryy	4.ryy	.	.	4.ryy	4.ryy	4.ryy	4ee-\	.	4gg\	.	8gg\L	.	8bb-\L	.
8E-\	.	8b-\	.	8ee-\	.	8b-/	.	8ee-\	.	.	.	.	.	.	.	.	.	.	.	.	8bb-\	.	8eee-\	.
8E-\J	.	8g\J	.	8b-\J	.	8g/J	.	8b-\J	.	.	.	.	.	.	.	.	[<8gg\	.	[<8bb-\	.	8gg\J	.	8bb-\J	.
=4	=4	=4	=4	=4	=4	=4	=4	=4	=4	=4	=4	=4	=4	=4	=4	=4	=4	=4	=4	=4	=4	=4	=4	=4
8E-\L	.	8g\L	.	8b-\L	.	8g/L	.	8b-\L	.	4.ryy	4.ryy	.	.	4.ryy	4.ryy	4.ryy	8gg\L]	.	8bb-\L]	.	8gg\L	.	8bb-\L	.
8E-\	.	16a-\L	.	16cc\L	.	16a-/L	.	16cc\L	.	.	.	.	.	.	.	.	16aa-\L	.	16ccc\L	.	16aa-\L	.	16ccc\L	.
.	.	16g\	.	16b-\	.	16g/	.	16b-\	.	.	.	.	.	.	.	.	16gg\	.	16bb-\	.	16gg\	.	16bb-\	.
8E-\J	.	16f\	.	16a-\	.	16f/	.	16a-\	.	.	.	.	.	.	.	.	16ff\	.	16aa-\	.	16ff\	.	16aa-\	.
.	.	16e-\JJ	.	16g\JJ	.	16e-/JJ	.	16g\JJ	.	.	.	.	.	.	.	.	16ee-\JJ	.	16gg\JJ	.	16ee-\JJ	.	16gg\JJ	.
=5	=5	=5	=5	=5	=5	=5	=5	=5	=5	=5	=5	=5	=5	=5	=5	=5	=5	=5	=5	=5	=5	=5	=5	=5
!	!	!	!	!	!	!	!	!	!	!	!	!LO:N:vis=00	!	!	!	!	!	!	!	!	!	!	!	!
(8BB-/L	.	4.f\	.	4.a-T\	.	4.fT/	.	4.a-T/	.	4.ryy	4.ryy	1.r	.	4.ryy	4.ryy	4.ryy	4.ff\	.	4.aa-T\	.	4.ff\	.	4.aa-T\	.
8C/	.	.	.	.	.	.	.	.	.	.	.	.	.	.	.	.	.	.	.	.	.	.	.	.
8D/J)	.	.	.	.	.	.	.	.	.	.	.	.	.	.	.	.	.	.	.	.	.	.	.	.
=6	=6	=6	=6	=6	=6	=6	=6	=6	=6	=6	=6	=6	=6	=6	=6	=6	=6	=6	=6	=6	=6	=6	=6	=6
8E-\L	.	4e-\	.	4g\	.	4e-/	.	4g/	.	4.ryy	4.ryy	.	.	4.ryy	4.ryy	4.ryy	4ee-\	.	4gg\	.	4ee-\	.	4gg\	.
16.B-\L	.	.	.	.	.	.	.	.	.	.	.	.	.	.	.	.	.	.	.	.	.	.	.	.
32A-\K	.	.	.	.	.	.	.	.	.	.	.	.	.	.	.	.	.	.	.	.	.	.	.	.
16.G\	.	8r	.	8r	.	8r	.	8r	.	.	.	.	.	.	.	.	8r	.	8r	.	8r	.	8r	.
32F\JJk	.	.	.	.	.	.	.	.	.	.	.	.	.	.	.	.	.	.	.	.	.	.	.	.
!	!	!	!	!	!	!LO:LB:g=original	!	!LO:LB:g=original	!	!	!	!	!	!	!	!	!	!	!	!	!	!	!	!
=7	=7	=7	=7	=7	=7	=7	=7	=7	=7	=7	=7	=7	=7	=7	=7	=7	=7	=7	=7	=7	=7	=7	=7	=7
8E-\L	.	8g\L	.	8b-\L	.	8g/L	.	8b-\L	.	4.ryy	4.ryy	.	.	4.ryy	4.ryy	4.ryy	8g/L	.	8b-\L	.	8gg\L	.	8bb-\L	.
8E-\	.	8b-\	.	8ee-\	.	8b-/	.	8ee-\	.	.	.	.	.	.	.	.	8b-/J	.	8ee-\	.	8bb-\	.	8eee-\	.
8E-\J	.	8g\J	.	8b-\J	.	8g/J	.	8b-\J	.	.	.	.	.	.	.	.	8gg\	.	8bb-\J	.	8gg\J	.	8bb-\J	.
!	!	!	!	!LO:LB:g=original	!	!	!	!	!	!	!	!	!	!	!	!	!LO:LB:g=original	!	!LO:LB:g=original	!	!LO:LB:g=original	!	!LO:LB:g=original	!
=8	=8	=8	=8	=8	=8	=8	=8	=8	=8	=8	=8	=8	=8	=8	=8	=8	=8	=8	=8	=8	=8	=8	=8	=8
8E-\L	.	8g\L	.	8b-\L	.	8g/L	.	8b-\L	.	4.ryy	4.ryy	.	.	4.ryy	4.ryy	4.ryy	8gg\L	.	8bb-\L	.	8gg\L	.	8bb-\L	.
8E-\	.	16a-\L	.	16cc\L	.	16a-/L	.	16cc\L	.	.	.	.	.	.	.	.	16aa-\L	.	16ccc\L	.	16aa-\L	.	16ccc\L	.
.	.	16g\	.	16b-\	.	16g/	.	16b-\	.	.	.	.	.	.	.	.	16gg\	.	16bb-\	.	16gg\	.	16bb-\	.
8E-\J	.	16f\	.	16a-\	.	16f/	.	16a-\	.	.	.	.	.	.	.	.	16ff\	.	16aa-\	.	16ff\	.	16aa-\	.
.	.	16e-\JJ	.	16g\JJ	.	16e-/JJ	.	16g\JJ	.	.	.	.	.	.	.	.	16ee-\JJ	.	16gg\JJ	.	16ee-\JJ	.	16gg\JJ	.
!LO:LB:g=original	!	!LO:LB:g=original	!	!	!	!	!	!	!	!	!	!	!	!	!	!	!	!	!	!	!	!	!	!
=9	=9	=9	=9	=9	=9	=9	=9	=9	=9	=9	=9	=9	=9	=9	=9	=9	=9	=9	=9	=9	=9	=9	=9	=9
!	!	!	!	!	!	!	!	!	!	!	!	!LO:N:vis=00	!	!	!	!	!	!	!	!	!	!	!	!
(8BB-/L	.	4.f\	.	4.a-T\	.	4.fT/	.	4.a-T/	.	4.ryy	4.ryy	1.r	.	4.ryy	4.ryy	4.ryy	4.ff\	.	4.aa-\	.	4.ff\	.	4.aa-T\	.
8C/	.	.	.	.	.	.	.	.	.	.	.	.	.	.	.	.	.	.	.	.	.	.	.	.
8D/J)	.	.	.	.	.	.	.	.	.	.	.	.	.	.	.	.	.	.	.	.	.	.	.	.
=10	=10	=10	=10	=10	=10	=10	=10	=10	=10	=10	=10	=10	=10	=10	=10	=10	=10	=10	=10	=10	=10	=10	=10	=10
8E-\L	.	4e-\	.	4g\	.	4e-/	.	4g/	.	4.ryy	4.ryy	.	.	4.ryy	4.ryy	4.ryy	4ee-\	.	4gg\	.	4ee-\	.	4gg\	.
16.B-\L	.	.	.	.	.	.	.	.	.	.	.	.	.	.	.	.	.	.	.	.	.	.	.	.
32A-\K	.	.	.	.	.	.	.	.	.	.	.	.	.	.	.	.	.	.	.	.	.	.	.	.
16.G\	.	8r	.	8r	.	8r	.	8r	.	.	.	.	.	.	.	.	8r	.	8r	.	8r	.	8r	.
32F\JJk	.	.	.	.	.	.	.	.	.	.	.	.	.	.	.	.	.	.	.	.	.	.	.	.
=11	=11	=11	=11	=11	=11	=11	=11	=11	=11	=11	=11	=11	=11	=11	=11	=11	=11	=11	=11	=11	=11	=11	=11	=11
16E-\LL	.	16.f\LL	.	16.a-\LL	.	16.f/LL	.	(16.a-/LL	.	4.ryy	4.ryy	.	.	4.ryy	4.ryy	4.ryy	(16.f/LL	.	16.a-/LL	.	16.ff\LL	.	16.aa-\LL	.
16E-\	.	.	.	.	.	.	.	.	.	.	.	.	.	.	.	.	.	.	.	.	.	.	.	.
.	.	32e-\K	.	32g\K	.	32e-/K	.	32g/K	.	.	.	.	.	.	.	.	32e-/K	.	32g/K	.	32ee-\K	.	32gg\K	.
16E-\	.	16.f\	.	16.a-\	.	16.f/	.	16.a-/	.	.	.	.	.	.	.	.	16.f/	.	16.a-/	.	16.ff\	.	16.aa-\	.
16E-\	.	.	.	.	.	.	.	.	.	.	.	.	.	.	.	.	.	.	.	.	.	.	.	.
.	.	32g\JJk	.	32b-\JJk	.	32g/JJk	.	32b-/JJk)	.	.	.	.	.	.	.	.	32g/JJk)	.	32b-/JJk	.	32gg\JJk	.	32bb-\JJk	.
16E-\	.	16a-\	.	16cc\	.	16a-/	.	16cc\	.	.	.	.	.	.	.	.	16a-/	.	16cc\	.	16aa-\	.	16ccc\	.
16E-\JJ	.	16r	.	16r	.	16r	.	16r	.	.	.	.	.	.	.	.	16r	.	16r	.	16r	.	16r	.
=12	=12	=12	=12	=12	=12	=12	=12	=12	=12	=12	=12	=12	=12	=12	=12	=12	=12	=12	=12	=12	=12	=12	=12	=12
16E-\LL	.	16.e-\LL	.	16.g\LL	.	16.g/LL	.	(16.g/LL	.	4.ryy	4.ryy	.	.	4.ryy	4.ryy	4.ryy	16.e-/LL	.	16.g/LL	.	16.ee-\LL	.	16.gg\LL	.
16E-\	.	.	.	.	.	.	.	.	.	.	.	.	.	.	.	.	.	.	.	.	.	.	.	.
.	.	32d\K	.	32f\K	.	32f/K	.	32f/K	.	.	.	.	.	.	.	.	32d/K	.	32f/K	.	32dd\K	.	32ff\K	.
16E-\	.	16.e-\	.	16.g\	.	16.g/	.	16.g/	.	.	.	.	.	.	.	.	16.e-/	.	16.g/	.	16.ee-\	.	16.gg\	.
16E-\	.	.	.	.	.	.	.	.	.	.	.	.	.	.	.	.	.	.	.	.	.	.	.	.
.	.	32f\JJk	.	32a-\JJk	.	32a-/JJk	.	32a-/JJk)	.	.	.	.	.	.	.	.	32f/JJk	.	32a-/JJk	.	32ff\JJk	.	32aa-\JJk	.
16E-\	.	16g\	.	16b-\	.	16b-/	.	16b-/	.	.	.	.	.	.	.	.	16g/	.	16b-\	.	16gg\	.	16bb-\	.
16E-\JJ	.	16r	.	16r	.	16r	.	16r	.	.	.	.	.	.	.	.	16r	.	16r	.	16r	.	16r	.
!	!	!	!	!	!	!LO:LB:g=original	!	!	!	!	!	!	!	!	!	!	!	!	!	!	!	!	!	!
=13	=13	=13	=13	=13	=13	=13	=13	=13	=13	=13	=13	=13	=13	=13	=13	=13	=13	=13	=13	=13	=13	=13	=13	=13
!	!	!	!	!	!	!	!	!	!	!	!	!LO:N:vis=00	!	!	!	!	!	!	!	!	!	!	!	!
16E-\LL	.	16.g\LL	.	16.b-\LL	.	16.g/LL	.	16.b-/LL	.	4.ryy	4.ryy	1.r	.	4.ryy	4.ryy	4.ryy	16.g/LL	.	16.b-\LL	.	16.gg\LL	.	16.bb-\LL	.
16E-\	.	.	.	.	.	.	.	.	.	.	.	.	.	.	.	.	.	.	.	.	.	.	.	.
.	.	32a-\JJk	.	32cc\JJk	.	32a-/JJk	.	32cc/JJk	.	.	.	.	.	.	.	.	32a-/JJk	.	32ee-\JJk	.	32aa-\JJk	.	32ccc\JJk	.
16E-\	.	(16g\LL	.	(16b-\LL	.	(16g/LL	.	(16b-/LL	.	.	.	.	.	.	.	.	16g/LL	.	(16b-\LL	.	(16gg\LL	.	(16bb-\LL	.
16E-\	.	16f\)	.	16a-\)	.	16f/)	.	16a-/	.	.	.	.	.	.	.	.	16f/	.	16a-\)	.	16ff\)	.	16aa-\)	.
16E-\	.	(16f\	.	(16g\	.	(16f/	.	16g/	.	.	.	.	.	.	.	.	16f/	.	(16a-\	.	(16ff\	.	(16aa-\	.
16E-\JJ	.	16e-\JJ)	.	16f\JJ)	.	16e-/JJ)	.	16f/JJ)	.	.	.	.	.	.	.	.	16e-/JJ	.	16g\JJ)	.	16ee-\JJ)	.	16gg\JJ)	.
!	!	!	!	!	!	!	!	!LO:LB:g=original	!	!	!	!	!	!	!	!	!	!	!	!	!	!	!	!
=14	=14	=14	=14	=14	=14	=14	=14	=14	=14	=14	=14	=14	=14	=14	=14	=14	=14	=14	=14	=14	=14	=14	=14	=14
8BB-/L	.	8e-\L	.	8g\L	.	8e-/L	.	8g/L	.	4.ryy	4.ryy	.	.	4.ryy	4.ryy	4.ryy	8e-/L	.	8gg\L	.	8ee-\L	.	8gg\L	.
8BBB-/J	.	8d\J	.	8f\J	.	8d/J	.	8f/J	.	.	.	.	.	.	.	.	8d/J	.	8ff\J	.	8dd\J	.	8ff\J	.
8r	.	8b-\	.	8b-\	.	8b-/	.	8b-/	.	.	.	.	.	.	.	.	8b-\	.	8bb-\	.	8bb-\	.	8bb-\	.
!	!	!	!	!LO:LB:g=original	!	!	!	!	!	!	!	!	!	!	!	!	!	!	!LO:LB:g=original	!	!LO:LB:g=original	!	!LO:LB:g=original	!
=15	=15	=15	=15	=15	=15	=15	=15	=15	=15	=15	=15	=15	=15	=15	=15	=15	=15	=15	=15	=15	=15	=15	=15	=15
!	!	!	!	!	!	!	!	!LO:SIC:o=:v:notatki dynamiczne zrobione czerwonym atramentem	!	!	!	!	!	!	!	!	!	!	!	!	!	!	!	!
!	!	!	!	!	!	!	!	!LO:TX:b:i:t=dol.	!	!	!	!	!	!	!	!	!	!	!	!	!	!	!	!
8BB-/L	.	8r	.	(32d\KLL	.	8r	.	(32d/KLL	.	4.ryy	4.ryy	.	.	4.ryy	4.ryy	4.ryy	8r	.	(32dd\KLL	.	8r	.	(32dd\KLL	.
.	.	.	.	16.e-\JJ)	.	.	.	16.e-/JJ)	.	.	.	.	.	.	.	.	.	.	16.ee-\JJ)	.	.	.	16.ee-\JJ)	.
8BB-/	.	8r	.	(32g-X\KLL	.	8r	.	(32g/KLL	.	.	.	.	.	.	.	.	8r	.	(32gg\KLL	.	8r	.	(32gg-X\KLL	.
.	.	.	.	16.b-\JJ)	.	.	.	16.b-/JJ)	.	.	.	.	.	.	.	.	.	.	16.bb-\JJ)	.	.	.	16.bb-\JJ)	.
8BB-/J	.	16r	.	(32a-\KLL	.	16r	.	(32a-/KLL	.	.	.	.	.	.	.	.	8dd\	.	(32aa-\KLL	.	16r	.	(32aa-\KLL	.
.	.	.	.	16.f\JJ)	.	.	.	16.f/JJ)	.	.	.	.	.	.	.	.	.	.	16.ff\JJ)	.	.	.	16.ff\JJ)	.
.	.	16d\	.	.	.	16d/	.	.	.	.	.	.	.	.	.	.	.	.	.	.	16dd\	.	.	.
=16	=16	=16	=16	=16	=16	=16	=16	=16	=16	=16	=16	=16	=16	=16	=16	=16	=16	=16	=16	=16	=16	=16	=16	=16
8EE-/L	.	8e-\L	.	32e-\LLL	.	8e-/L	.	32e-/LLL	.	4.ryy	4.ryy	.	.	4.ryy	4.ryy	4.ryy	8ee-\L	.	8gg\L	.	8ee-\L	.	32ee-\LLL	.
.	.	.	.	32f\J	.	.	.	32f/J	.	.	.	.	.	.	.	.	.	.	.	.	.	.	32ff\J	.
.	.	.	.	16g\JJ	.	.	.	16g/JJ	.	.	.	.	.	.	.	.	.	.	.	.	.	.	16gg\JJ	.
8BB-/J	.	8d\J	.	16f\KL	.	8d/J	.	16f/	.	.	.	.	.	.	.	.	8dd\J	.	8ff\J	.	8dd\J	.	16ff\KL	.
!	!	!	!	!	!	!	!	!LO:TX:b:i:t=dol&colon;	!	!	!	!	!	!	!	!	!	!	!	!	!	!	!	!
.	.	.	.	8.b-\J	.	.	.	8.b-/	.	.	.	.	.	.	.	.	.	.	.	.	.	.	8.bb-\J	.
8r	.	8r	.	.	.	8r	.	.	.	.	.	.	.	.	.	.	8r	.	8bb-\	.	8r	.	.	.
!LO:LB:g=original	!	!LO:LB:g=original	!	!	!	!	!	!	!	!	!	!	!	!	!	!	!LO:LB:g=original	!	!	!	!	!	!	!
=17	=17	=17	=17	=17	=17	=17	=17	=17	=17	=17	=17	=17	=17	=17	=17	=17	=17	=17	=17	=17	=17	=17	=17	=17
!	!	!	!	!	!	!	!	!	!LO:DY:b:t=po&colon;	!	!	!LO:N:vis=00	!	!	!	!	!	!	!	!	!	!	!	!
8BB-/L	.	8r	.	(32d\KLL	.	8r	.	(32d/KLL	p	4.ryy	4.ryy	1.r	.	4.ryy	4.ryy	4.ryy	8r	.	(32dd\KLL	.	8r	.	(32dd\KLL	.
.	.	.	.	16.e-\JJ)	.	.	.	16.e-/JJ)	.	.	.	.	.	.	.	.	.	.	16.ee-\JJ)	.	.	.	16.ee-\JJ)	.
8BB-/	.	8r	.	(32g-\KLL	.	8r	.	(32g/KLL	.	.	.	.	.	.	.	.	8r	.	(32gg\KLL	.	8r	.	(32gg-X\KLL	.
.	.	.	.	16.b-\JJ)	.	.	.	16.b-/JJ)	.	.	.	.	.	.	.	.	.	.	16.bb-\JJ)	.	.	.	16.bb-\JJ)	.
8BB-/J	.	16r	.	(32a-\KLL	.	16r	.	(32a-/KLL	.	.	.	.	.	.	.	.	8dd\	.	(32aa-\KLL	.	16r	.	(32aa-\KLL	.
.	.	.	.	16.f\JJ)	.	.	.	16.f/JJ)	.	.	.	.	.	.	.	.	.	.	16.ff\JJ)	.	.	.	16.ff\JJ)	.
.	.	16d\	.	.	.	16d/	.	.	.	.	.	.	.	.	.	.	.	.	.	.	16dd\	.	.	.
=18	=18	=18	=18	=18	=18	=18	=18	=18	=18	=18	=18	=18	=18	=18	=18	=18	=18	=18	=18	=18	=18	=18	=18	=18
8EE-/L	.	8e-\L	.	8g\L	.	8e-/L	.	8g/L	.	4.ryy	4.ryy	.	.	4.ryy	4.ryy	4.ryy	8ee-\L	.	8gg\L	.	8ee-\L	.	8gg\L	.
8BB-/J	.	8d\J	.	8f\J	.	8d/J	.	8f/J	.	.	.	.	.	.	.	.	8dd\J	.	8ff\J	.	8dd\J	.	8ff\J	.
!	!	!	!	!	!	!	!	!LO:TX:b:i:t=dol&colon;	!	!	!	!	!	!	!	!	!	!	!	!	!	!	!	!
8r	.	8r	.	8r	.	8r	.	8b-\	.	.	.	.	.	.	.	.	8b-\	.	8b-\	.	8r	.	8r	.
!	!	!	!	!	!	!LO:LB:g=original	!	!LO:LB:g=original	!	!	!	!	!	!	!	!	!	!	!	!	!	!	!	!
=19	=19	=19	=19	=19	=19	=19	=19	=19	=19	=19	=19	=19	=19	=19	=19	=19	=19	=19	=19	=19	=19	=19	=19	=19
!LO:TX:a:t=2	!	!	!	!	!	!	!	!	!	!	!	!	!	!	!	!	!	!	!	!	!	!	!	!
!LO:N:vis=0	!	!	!	!	!	!	!	!	!	!	!	!	!	!	!	!	!	!	!	!	!	!	!	!
2.r	.	8r	.	8r	.	8r	.	(8ee-\L	.	4.ryy	4.ryy	.	.	4.ryy	4.ryy	4.ryy	(8ee-\L	.	8ee-\L	.	8r	.	8r	.
!	!	!LO:TX:t=P:problem=mixed beam	!	!	!	!	!	!	!	!	!	!	!	!	!	!	!	!	!	!	!	!	!	!
.	.	8B-/L	.	8b-\L	.	8r	.	8dd\	.	.	.	.	.	.	.	.	8dd\	.	8dd\	.	8b-\L	.	8bb-\L	.
!	!	!	!	!	!	!LO:TX:b:i:t=dol	!	!	!	!	!	!	!	!	!	!	!	!	!	!	!	!	!	!
.	.	8e-\J	.	8ee-\J	.	8g/	.	8cc\J)	.	.	.	.	.	.	.	.	8cc\J)	.	8cc\J	.	8ee-\J	.	8eee-\J	.
=20	=20	=20	=20	=20	=20	=20	=20	=20	=20	=20	=20	=20	=20	=20	=20	=20	=20	=20	=20	=20	=20	=20	=20	=20
!	!	!	!	!	!	!	!LO:DY:b:t=po&colon;	!	!	!	!	!	!	!	!	!	!	!	!	!	!	!	!	!
.	.	(8d\L	.	(8dd\L	.	(8f/L	p	(8b-/L	.	4.ryy	4.ryy	.	.	4.ryy	4.ryy	4.ryy	(8b-\L	.	8bb-\L	.	(8ddd\L	.	(8ddd\L	.
.	.	8c\	.	8cc\	.	8e-/)	.	8a-/	.	.	.	.	.	.	.	.	8a-\	.	8aa-\	.	8ccc\	.	8ccc\	.
.	.	8B-\J)	.	8b-\J)	.	8d/J	.	8g/J)	.	.	.	.	.	.	.	.	8g\J)	.	8gg\J	.	8bb-\J)	.	8bb-\J)	.
!	!	!	!	!LO:LB:g=original	!	!	!	!	!	!	!	!	!	!	!	!	!	!	!	!	!	!	!	!
=21	=21	=21	=21	=21	=21	=21	=21	=21	=21	=21	=21	=21	=21	=21	=21	=21	=21	=21	=21	=21	=21	=21	=21	=21
!	!	!	!	!LO:TX:t=P:problem=mixed beam	!	!	!	!	!	!	!	!	!	!	!	!	!	!	!	!	!	!	!	!
!	!	!	!	!	!	!	!	!	!LO:DY:b:t=po	!	!	!LO:N:vis=00	!	!	!	!	!	!	!	!	!	!	!	!
8AA-/L	.	8A-/L	.	8a-\L	.	(8c/L	.	32f/LLL	p	4.ryy	4.ryy	1.r	.	4.ryy	4.ryy	4.ryy	(8f/L	.	(8ff\L	.	8aa-\L	.	8aa-\L	.
.	.	.	.	.	.	.	.	32g/J	.	.	.	.	.	.	.	.	.	.	.	.	.	.	.	.
.	.	.	.	.	.	.	.	16a-/JJ	.	.	.	.	.	.	.	.	.	.	.	.	.	.	.	.
8BB-/	.	8B-/	.	8b-\	.	8B-/	.	8e-/L	.	.	.	.	.	.	.	.	8e-/	.	8ee-\	.	8bb-\	.	8bb-\	.
8BBB-/J	.	8B-/J	.	8B-/J	.	8A-/J)	.	8d/J	.	.	.	.	.	.	.	.	8d/J)	.	8dd\J)	.	8bb-\J	.	8bb-\J	.
!	!	!	!	!	!	!	!	!	!	!	!	!	!	!	!	!	!	!	!	!	!	!	!LO:LB:g=original	!
=22	=22	=22	=22	=22	=22	=22	=22	=22	=22	=22	=22	=22	=22	=22	=22	=22	=22	=22	=22	=22	=22	=22	=22	=22
.	.	.	.	.	.	8qA-/	.	.	.	.	.	.	.	.	.	.	.	.	.	.	.	.	.	.
4EE-/	.	4f\	.	4e-\	.	4G/	.	4e-/	.	4.ryy	4.ryy	.	.	4.ryy	4.ryy	4.ryy	4e-/	.	4ee-\	.	4eee-\	.	4eee-\	.
!	!	!	!	!	!	!	!	!LO:TX:b:i:t=dol	!	!	!	!	!	!	!	!	!	!	!	!	!	!	!	!
8r	.	8B-/	.	8b-\	.	8b-\	.	8b-/	.	.	.	.	.	.	.	.	8r	.	8r	.	8bb-\	.	8bb-\	.
!	!	!	!	!	!	!	!	!	!	!	!	!	!	!	!	!	!	!	!LO:LB:g=original	!	!LO:LB:g=original	!	!	!
=23	=23	=23	=23	=23	=23	=23	=23	=23	=23	=23	=23	=23	=23	=23	=23	=23	=23	=23	=23	=23	=23	=23	=23	=23
!	!	!	!	!	!	!	!	!	!LO:DY:b:t=po	!	!	!	!	!	!	!	!	!	!	!	!	!	!	!
8BB-/L	.	8r	.	(32d\KLL	.	8r	.	(32d/KLL	p	4.ryy	4.ryy	.	.	4.ryy	4.ryy	4.ryy	8r	.	8r	.	8r	.	(32dd\KLL	.
.	.	.	.	16.e-\JJ)	.	.	.	16.e-/JJ)	.	.	.	.	.	.	.	.	.	.	.	.	.	.	16.ee-\JJ)	.
8BB-/	.	8r	.	(32g-X\KLL	.	8r	.	(32g-X/KLL	.	.	.	.	.	.	.	.	8r	.	8r	.	8r	.	(32gg-X\KLL	.
.	.	.	.	16.b-\JJ)	.	.	.	16.b-/JJ)	.	.	.	.	.	.	.	.	.	.	.	.	.	.	16.bb-\JJ)	.
8BB-/J	.	16r	.	(32a-\KLL	.	16r	.	(32a-/KLL	.	.	.	.	.	.	.	.	8dd\	.	8ff\	.	16r	.	(32aa-\KLL	.
.	.	.	.	16.f\JJ)	.	.	.	16.f/JJ)	.	.	.	.	.	.	.	.	.	.	.	.	.	.	16.ff\JJ)	.
.	.	16d\	.	.	.	16d/	.	.	.	.	.	.	.	.	.	.	.	.	.	.	16dd\	.	.	.
=24	=24	=24	=24	=24	=24	=24	=24	=24	=24	=24	=24	=24	=24	=24	=24	=24	=24	=24	=24	=24	=24	=24	=24	=24
8EE-/L	.	8e-\L	.	32e-\LLL	.	8e-/L	.	32e-/LLL	.	4.ryy	4.ryy	.	.	4.ryy	4.ryy	4.ryy	8ee-\L	.	8gg-X\L	.	8ee-\L	.	32ee-\LLL	.
.	.	.	.	32f\J	.	.	.	32f/J	.	.	.	.	.	.	.	.	.	.	.	.	.	.	32ff\J	.
.	.	.	.	16g-X\JJ	.	.	.	16g-X/JJ	.	.	.	.	.	.	.	.	.	.	.	.	.	.	16gg-X\JJ	.
8BB-/J	.	8d\J	.	16f\KL	.	8d/J	.	16f/	.	.	.	.	.	.	.	.	8dd\J	.	8ff\J	.	8dd\J	.	16ff\KL	.
!	!	!	!	!	!	!	!	!LO:TX:b:i:t=dol	!	!	!	!	!	!	!	!	!	!	!	!	!	!	!	!
.	.	.	.	8.b-\J	.	.	.	8.b-\	.	.	.	.	.	.	.	.	.	.	.	.	.	.	8.bb-\J	.
8r	.	8r	.	.	.	8r	.	.	.	.	.	.	.	.	.	.	8r	.	8r	.	8r	.	.	.
!	!	!	!	!	!	!LO:TX:b:t=Cito Vertate	!	!	!	!	!	!	!	!	!	!	!	!	!	!	!	!	!	!
!	!	!	!	!	!	!LO:PB:g=original	!	!LO:LB:g=original	!	!	!	!	!	!	!	!	!	!	!	!	!	!	!	!
=25	=25	=25	=25	=25	=25	=25	=25	=25	=25	=25	=25	=25	=25	=25	=25	=25	=25	=25	=25	=25	=25	=25	=25	=25
!	!	!	!	!	!	!	!	!	!	!	!	!LO:N:vis=00	!	!	!	!	!	!	!	!	!	!	!	!
8BB-/L	.	8r	.	(32d\KLL	.	8r	.	(32d/KLL	.	4.ryy	4.ryy	1.r	.	4.ryy	4.ryy	4.ryy	8r	.	8r	.	8r	.	(32dd\KLL	.
.	.	.	.	16.e-\JJ)	.	.	.	16.e-/JJ)	.	.	.	.	.	.	.	.	.	.	.	.	.	.	16.ee-\JJ)	.
8BB-/	.	8r	.	(32g-X\KLL	.	8r	.	(32g-X/KLL	.	.	.	.	.	.	.	.	8r	.	8r	.	8r	.	(32gg-X\KLL	.
.	.	.	.	16.b-\JJ)	.	.	.	16.b-/JJ)	.	.	.	.	.	.	.	.	.	.	.	.	.	.	16.bb-\JJ)	.
8BB-/J	.	16r	.	(32a-\KLL	.	16r	.	(32a-/KLL	.	.	.	.	.	.	.	.	8dd\	.	8ff\	.	16r	.	(32aa-\KLL	.
.	.	.	.	16.f\JJ)	.	.	.	16.f/JJ)	.	.	.	.	.	.	.	.	.	.	.	.	.	.	16.ff\JJ)	.
.	.	16d\	.	.	.	16d/	.	.	.	.	.	.	.	.	.	.	.	.	.	.	16dd\	.	.	.
!	!	!LO:LB:g=original	!	!	!	!	!	!	!	!	!	!	!	!	!	!	!	!	!	!	!	!	!	!
=26	=26	=26	=26	=26	=26	=26	=26	=26	=26	=26	=26	=26	=26	=26	=26	=26	=26	=26	=26	=26	=26	=26	=26	=26
8EE-/L	.	8e-\L	.	8g-X\L	.	8e-/L	.	8g-X/L	.	4.ryy	4.ryy	.	.	4.ryy	4.ryy	4.ryy	8ee-\L	.	8gg-X\L	.	8ee-\L	.	8gg-X\L	.
8BB-/J	.	8d\J	.	8f\J	.	8d/J	.	8f/J	.	.	.	.	.	.	.	.	8dd\J	.	8ff\J	.	8dd\J	.	8ff\J	.
!	!	!	!	!	!	!	!	!	!LO:DY:b:t=fr&colon;	!	!	!	!	!	!	!	!	!	!	!	!	!	!	!
8r	.	8r	.	8r	.	8r	.	8b-\	f	.	.	.	.	.	.	.	8b-\	.	8b-\	.	8r	.	8r	.
!	!	!	!	!LO:LB:g=original	!	!	!	!	!	!	!	!	!	!	!	!	!LO:LB:g=original	!	!	!	!	!	!	!
=27	=27	=27	=27	=27	=27	=27	=27	=27	=27	=27	=27	=27	=27	=27	=27	=27	=27	=27	=27	=27	=27	=27	=27	=27
8r	f	8r	f	8r	f	8r	.	8ee-\L	.	4.ryy	4.ryy	.	.	4.ryy	4.ryy	4.ryy	(8ee-\L	.	(8ee-\L	.	8r	.	8r	f
!	!	!LO:TX:t=P:problem=mixed beam	!	!	!	!	!	!	!	!	!	!	!	!	!	!	!	!	!	!	!	!	!	!
8BB-/L	.	8B-\L	.	8b-\L	.	8r	.	8dd\	.	.	.	.	.	.	.	.	8dd\	.	8dd\	.	8bb-\L	.	8bb-\L	.
8E-/J	.	8e-/J	.	8ee-\J	.	8g/	f	8cc\J	.	.	.	.	.	.	.	.	8cc\J)	.	8cc\J)	.	8eee-\J	.	8eee-\J	.
!	!	!	!	!	!	!	!	!	!	!	!	!	!	!	!	!	!	!	!	!	!	!	!LO:LB:g=original	!
=28	=28	=28	=28	=28	=28	=28	=28	=28	=28	=28	=28	=28	=28	=28	=28	=28	=28	=28	=28	=28	=28	=28	=28	=28
8D/L	.	(8d\L	.	(8dd\L	.	8f/L	.	8b-\L	.	4.ryy	4.ryy	.	.	4.ryy	4.ryy	4.ryy	(8b-\L	.	(8bb-\L	.	(8ddd\L	.	(8ddd\L	.
8C/	.	8c\	.	8cc\	.	8e-/	.	8a-\	.	.	.	.	.	.	.	.	8a-\	.	8aa-\	.	8ccc\	.	8ccc\	.
8BB-/J	.	8B-\J)	.	8b-\J)	.	8d/J	.	8g\J	.	.	.	.	.	.	.	.	8g\J)	.	8gg\J)	.	8bb-\J)	.	8bb-\J)	.
=29	=29	=29	=29	=29	=29	=29	=29	=29	=29	=29	=29	=29	=29	=29	=29	=29	=29	=29	=29	=29	=29	=29	=29	=29
!	!	!	!	!LO:TX:t=P:problem=mixed beam	!	!	!	!	!	!	!	!	!	!	!	!	!	!	!	!	!	!	!	!
!	!	!	!	!	!	!	!	!	!	!	!	!LO:N:vis=0	!	!	!	!	!	!	!	!	!	!	!	!
8AA-/L	.	8A-/L	.	8a-\L	.	8c/L	.	32f/LLL	.	4.ryy	4.ryy	2.r	.	4.ryy	4.ryy	4.ryy	(8f/L	.	(8ff\L	.	8aa-\L	.	8aa-\L	.
.	.	.	.	.	.	.	.	32g/J	.	.	.	.	.	.	.	.	.	.	.	.	.	.	.	.
.	.	.	.	.	.	.	.	16a-/JJ	.	.	.	.	.	.	.	.	.	.	.	.	.	.	.	.
8BB-/	.	8B-/	.	8b-\	.	8B-/	.	8e-/L	.	.	.	.	.	.	.	.	8e-/	.	8ee-\	.	8bb-\	.	8bb-\	.
8BBB-/J	.	8B-/J	.	8B-/J	.	8A-/J	.	8d/J	.	.	.	.	.	.	.	.	8d/J)	.	8dd\J)	.	8bb-\J	.	8bb-\J	.
!LO:LB:g=original	!	!	!	!	!	!	!	!	!	!	!	!	!	!	!	!	!	!	!	!	!	!	!	!
=30	=30	=30	=30	=30	=30	=30	=30	=30	=30	=30	=30	=30	=30	=30	=30	=30	=30	=30	=30	=30	=30	=30	=30	=30
.	.	.	.	.	.	8qA-/	.	8qqd/	.	.	.	.	.	.	.	.	.	.	.	.	.	.	.	.
4EE-/	.	4E-/	.	4e-\	.	4G/	.	4e-/	.	4.ryy	4.ryy	.	.	4.ryy	4.ryy	4.ryy	4e-/	.	4ee-\	.	4ee-\	.	4eee-\	.
8r	.	8r	.	8r	.	8r	.	8r	.	.	.	.	.	.	.	.	8r	.	8r	.	8r	.	8r	.
!	!	!	!	!	!	!	!	!LO:LB:g=original	!	!	!	!	!	!	!	!	!	!	!	!	!LO:LB:g=original	!	!	!
=31	=31	=31	=31	=31	=31	=31	=31	=31	=31	=31	=31	=31	=31	=31	=31	=31	=31	=31	=31	=31	=31	=31	=31	=31
!	!LO:DY:b:t=p&colon;	!	!	!	!	!	!LO:DY:b:t=p&colon;	!	!LO:DY:b:t=po&colon;	!	!	!	!	!	!	!	!	!	!	!	!	!	!	!
8EE-/L	p	16.e-\LL	p	16.g\LL	p	(16.e-/LL	p	16.g/LL	p	4.ryy	4.ryy	16.g\	San-	4.ryy	4.ryy	4.ryy	4.r	.	4.r	.	16.ee-\LL	p	16.gg\LL	p
.	.	32f\JJk	.	32a-\JJk	.	32f/JJk)	.	32a-/JJk	.	.	.	32a-\	-ctus	.	.	.	.	.	.	.	32ff\JJk	.	32aa-\JJk	.
*	*	*	*	*	*	*	*	*	*	*	*	*	*ij	*	*	*	*	*	*	*	*	*	*	*
8EE-/	.	8g\L	.	8b-\L	.	8g/L	.	8b-/L	.	.	.	(8b-\L	San-	.	.	.	.	.	.	.	8gg\L	.	8bb-\L	.
8BB-/J	.	8f\J	.	8a-\J	.	8f/J	.	8a-/J	.	.	.	8a-\J)	.	.	.	.	.	.	.	.	8ff\J	.	8aa-\J	.
!	!	!	!	!	!	!LO:LB:g=original	!	!	!	!	!	!	!	!	!	!	!	!	!	!	!	!	!	!
=32	=32	=32	=32	=32	=32	=32	=32	=32	=32	=32	=32	=32	=32	=32	=32	=32	=32	=32	=32	=32	=32	=32	=32	=32
8E-/L	.	4e-\	.	4g\	.	4g/	.	4g/	.	4.ryy	4.ryy	4g\	-ctus	4.ryy	4.ryy	4.ryy	16.ee-\LL	.	16.gg\LL	.	4ee-\	.	4gg\	.
.	.	.	.	.	.	.	.	.	.	.	.	.	.	.	.	.	32ff\JJk	.	32aa-\JJk	.	.	.	.	.
8E-/	.	.	.	.	.	.	.	.	.	.	.	.	.	.	.	.	8gg\L	.	8bb-\L	.	.	.	.	.
8BB-/J	.	8r	.	8r	.	8r	.	8r	.	.	.	8r	.	.	.	.	8ff\J	.	8aa-\J	.	8r	.	8r	.
*	*	*	*	*	*	*	*	*	*	*	*	*	*Xij	*	*	*	*	*	*	*	*	*	*	*
!	!	!	!	!	!	!	!	!	!	!	!	!	!	!	!	!	!	!	!LO:LB:g=original	!	!	!	!	!
=33	=33	=33	=33	=33	=33	=33	=33	=33	=33	=33	=33	=33	=33	=33	=33	=33	=33	=33	=33	=33	=33	=33	=33	=33
8EE-/L	.	8g\L	.	8b-\L	.	8g/L	.	8b-\L	.	4.ryy	4.ryy	8r	.	4.ryy	4.ryy	4.ryy	4ee-\	.	4gg\	.	8gg\L	.	8bb-\L	.
8EE-/	.	8b-\	.	8ee-\	.	8g/	.	8ee-\	.	.	.	4b-\	Do-	.	.	.	.	.	.	.	8bb-\	.	8eee-\	.
8EE-/J	.	8g\J	.	8b-\J	.	8g/J	.	8b-\J	.	.	.	.	.	.	.	.	8gg\	.	[8bb-\	.	8gg\J	.	8bb-\J	.
=34	=34	=34	=34	=34	=34	=34	=34	=34	=34	=34	=34	=34	=34	=34	=34	=34	=34	=34	=34	=34	=34	=34	=34	=34
8EE-/L	.	8g\L	.	8b-\L	.	8g/L	.	8b-\L	.	4.ryy	4.ryy	8b-\L	-mi-	4.ryy	4.ryy	4.ryy	8gg\L	.	8bb-\L]	.	8gg\L	.	8bb-\L	.
8EE-/	.	16a-\L	.	16cc\L	.	16a-/L	.	16cc\L	.	.	.	16cc\L	.	.	.	.	16aa-\L	.	16ccc\L	.	16aa-\L	.	16ccc\L	.
.	.	16g\	.	16b-\	.	16g/	.	16b-\	.	.	.	(16b-\	-nus	.	.	.	16gg\	.	16bb-\	.	16gg\	.	16bb-\	.
8EE-/J	.	16f\	.	16a-\	.	16f/	.	16a-\	.	.	.	16a-\	.	.	.	.	16ff\	.	16aa-\	.	16ff\	.	16aa-\	.
.	.	16e-\JJ	.	16g\JJ	.	16e-/JJ	.	16g\JJ	.	.	.	16g\JJ)	.	.	.	.	16ee-\JJ	.	16gg\JJ	.	16ee-\JJ	.	16gg\JJ	.
=35	=35	=35	=35	=35	=35	=35	=35	=35	=35	=35	=35	=35	=35	=35	=35	=35	=35	=35	=35	=35	=35	=35	=35	=35
8BB-/L	.	4.f\	.	4.a-\	.	4.fT/	.	4.a-T/	.	4.ryy	4.ryy	4.a-\	De-	4.ryy	4.ryy	4.ryy	4.ff\	.	4.aa-\	.	4.ff\	.	4.aa-\	.
8FF/	.	.	.	.	.	.	.	.	.	.	.	.	.	.	.	.	.	.	.	.	.	.	.	.
8BBB-/J	.	.	.	.	.	.	.	.	.	.	.	.	.	.	.	.	.	.	.	.	.	.	.	.
!	!	!LO:LB:g=original	!	!LO:LB:g=original	!	!	!	!	!	!	!	!LO:LB:g=original	!	!	!	!	!	!	!	!	!	!	!	!
=36	=36	=36	=36	=36	=36	=36	=36	=36	=36	=36	=36	=36	=36	=36	=36	=36	=36	=36	=36	=36	=36	=36	=36	=36
!LO:TX:t=P:problem=mixed beam	!	!	!	!	!	!	!	!	!	!	!	!	!	!	!	!	!	!	!	!	!	!	!	!
8EE-/L	.	4e-\	.	4g\	.	4e-/	.	4g/	.	4.ryy	4.ryy	4g\	-us	4.ryy	4.ryy	4.ryy	4ee-\	.	4gg\	.	4ee-\	.	4gg\	.
16.B-\L	.	.	.	.	.	.	.	.	.	.	.	.	.	.	.	.	.	.	.	.	.	.	.	.
32A-\K	.	.	.	.	.	.	.	.	.	.	.	.	.	.	.	.	.	.	.	.	.	.	.	.
16.G\	.	8r	.	8r	.	8r	.	8r	.	.	.	8r	.	.	.	.	8r	.	8r	.	8r	.	8r	.
32F\JJk	.	.	.	.	.	.	.	.	.	.	.	.	.	.	.	.	.	.	.	.	.	.	.	.
!	!	!	!	!	!	!	!	!LO:PB:g=original	!	!	!	!	!	!	!	!	!	!	!	!	!	!	!LO:LB:g=original	!
=37	=37	=37	=37	=37	=37	=37	=37	=37	=37	=37	=37	=37	=37	=37	=37	=37	=37	=37	=37	=37	=37	=37	=37	=37
!	!	!	!	!	!	!	!	!	!	!	!	!	!	!	!	!	!	!	!	!	!LO:SIC:o:s=:v: brak czterech taktów	!	!	!
8E-\L	.	(16.f\LL	.	8b-\L	.	8g/L	.	8b-\L	.	4.ryy	4.ryy	8r	.	4.ryy	4.ryy	4.ryy	8r	.	8r	.	4.ryy	.	8bb-\L	.
.	.	32e-\K	.	.	.	.	.	.	.	.	.	.	.	.	.	.	.	.	.	.	.	.	.	.
8E-\	.	16.f\	.	8ee-\	.	8b-/	.	8ee-\	.	.	.	4b-\	De-	.	.	.	8r	.	8r	.	.	.	8eee-\	.
.	.	32g\JJk)	.	.	.	.	.	.	.	.	.	.	.	.	.	.	.	.	.	.	.	.	.	.
8E-\J	.	8a-\	.	8b-\J	.	8g/J	.	8b-\J	.	.	.	.	.	.	.	.	8gg\	.	[<8bb-\	.	.	.	8bb-\J	.
!	!	!	!	!	!	!	!	!	!	!	!	!	!	!	!	!	!LO:LB:g=original	!	!	!	!	!	!	!
=38	=38	=38	=38	=38	=38	=38	=38	=38	=38	=38	=38	=38	=38	=38	=38	=38	=38	=38	=38	=38	=38	=38	=38	=38
8E-\L	.	16.e-\LL	.	8b-\L	.	8g/L	.	8b-\L	.	4.ryy	4.ryy	8b-\L	-us	4.ryy	4.ryy	4.ryy	8gg\L	.	8bb-\L]	.	4.ryy	.	8bb-\L	.
.	.	32d\K	.	.	.	.	.	.	.	.	.	.	.	.	.	.	.	.	.	.	.	.	.	.
8E-\	.	16.e-\	.	16cc\L	.	16a-/L	.	16cc\L	.	.	.	(16cc\L	Sa-	.	.	.	16gg\L	.	16ccc\L	.	.	.	16ccc\L	.
.	.	.	.	16b-\	.	16g/	.	16b-\	.	.	.	16b-\	.	.	.	.	16aa-\	.	16bb-\	.	.	.	16bb-\	.
.	.	32f\JJk	.	.	.	.	.	.	.	.	.	.	.	.	.	.	.	.	.	.	.	.	.	.
8E-\J	.	8g\	.	16a-\	.	16f/	.	16a-\	.	.	.	16a-\	.	.	.	.	16ff\	.	16aa-\	.	.	.	16aa-\	.
.	.	.	.	16g\JJ	.	16e-/JJ	.	16g\JJ	.	.	.	16g\JJ)	.	.	.	.	16ee-\JJ	.	16gg\JJ	.	.	.	16gg\JJ	.
=39	=39	=39	=39	=39	=39	=39	=39	=39	=39	=39	=39	=39	=39	=39	=39	=39	=39	=39	=39	=39	=39	=39	=39	=39
!	!	!LO:TX:a:t=1.	!	!	!	!	!	!	!	!	!	!	!	!	!	!	!	!	!	!	!	!	!	!
(8BB-/L	.	4.r	.	4.a-T\	.	4.f/	.	4.a-/	.	4.ryy	4.ryy	4.a-\	-ba-	4.ryy	4.ryy	4.ryy	4.ff\	.	4.aa-\	.	4.ryy	.	4.aa-T\	.
8C/	.	.	.	.	.	.	.	.	.	.	.	.	.	.	.	.	.	.	.	.	.	.	.	.
8D/J)	.	.	.	.	.	.	.	.	.	.	.	.	.	.	.	.	.	.	.	.	.	.	.	.
!LO:LB:g=original	!	!	!	!	!	!LO:LB:g=original	!	!	!	!	!	!	!	!	!	!	!	!	!	!	!	!	!	!
=40	=40	=40	=40	=40	=40	=40	=40	=40	=40	=40	=40	=40	=40	=40	=40	=40	=40	=40	=40	=40	=40	=40	=40	=40
16E-\LL	.	16r	.	4g\	.	16.e-/LL	.	16.g/LL	.	4.ryy	4.ryy	4g\	-oth	4.ryy	4.ryy	4.ryy	(16.ee-\LL	.	(16.gg\LL	.	4.ryy	.	4gg\	.
16E-\	.	(16B-\LL	.	.	.	.	.	.	.	.	.	.	.	.	.	.	.	.	.	.	.	.	.	.
.	.	.	.	.	.	32d/K	.	32f/K	.	.	.	.	.	.	.	.	32dd\K	.	32ff\K	.	.	.	.	.
16E-\	.	16d\	.	.	.	16.e-/	.	16.g/	.	.	.	.	.	.	.	.	16.ee-\	.	16.gg\	.	.	.	.	.
16E-\	.	16f\	.	.	.	.	.	.	.	.	.	.	.	.	.	.	.	.	.	.	.	.	.	.
.	.	.	.	.	.	32f/JK	.	32a-/JJk	.	.	.	.	.	.	.	.	32ff\JJk)	.	32aa-\JJk)	.	.	.	.	.
16E-\	.	16b-\	.	8r	.	8g/J	.	8b-/	.	.	.	8r	.	.	.	.	8gg\	.	8bb-\	.	.	.	8r	.
16E-\JJ	.	16dd\JJ)	.	.	.	.	.	.	.	.	.	.	.	.	.	.	.	.	.	.	.	.	.	.
=41	=41	=41	=41	=41	=41	=41	=41	=41	=41	=41	=41	=41	=41	=41	=41	=41	=41	=41	=41	=41	=41	=41	=41	=41
16E-\LL	.	8cc\L	.	16.a-\LL	.	16.f/LL	.	16.a-/LL	.	4.ryy	4.ryy	8r	.	4.ryy	4.ryy	4.ryy	(16.ff\LL	.	(16.aa-\LL	.	(16.ff\LL	.	16.aa-\LL	.
16E-\	.	.	.	.	.	.	.	.	.	.	.	.	.	.	.	.	.	.	.	.	.	.	.	.
.	.	.	.	32g\K	.	32e-/K	.	32g/K	.	.	.	.	.	.	.	.	32ee-\K	.	32gg\K	.	32ee-\K	.	32gg\L	.
16E-\	.	8f\J	.	16.a-\	.	16.f/	.	16.a-/	.	.	.	4a-\	Ple-	.	.	.	16.ff\	.	16.aa-\	.	16.ff\	.	16.aa-\	.
16E-\	.	.	.	.	.	.	.	.	.	.	.	.	.	.	.	.	.	.	.	.	.	.	.	.
.	.	.	.	32b-\JK	.	32g/JK	.	32b-/JJk	.	.	.	.	.	.	.	.	32gg\JJk)	.	32bb-\JK)	.	32gg\JJk)	.	32ddd\JJJ	.
16E-\	.	8r	.	8cc\J	.	8a-/J	.	8cc\	.	.	.	.	.	.	.	.	8aa-\	.	8ccc\J	.	8aa-\	.	8ccc\	.
16E-\JJ	.	.	.	.	.	.	.	.	.	.	.	.	.	.	.	.	.	.	.	.	.	.	.	.
!	!	!	!	!	!	!	!	!	!	!	!	!	!	!	!	!	!	!	!LO:LB:g=original	!	!	!	!	!
=42	=42	=42	=42	=42	=42	=42	=42	=42	=42	=42	=42	=42	=42	=42	=42	=42	=42	=42	=42	=42	=42	=42	=42	=42
!	!	!LO:TX:a:t=3	!	!	!	!	!	!	!	!	!	!	!	!	!	!	!	!	!	!	!	!	!	!
!	!	!LO:N:vis=0	!	!	!	!	!	!	!	!	!	!	!	!	!	!	!	!	!	!	!	!	!	!
16E-\LL	.	2.r	.	16.g\LL	.	16.e-/LL	.	16.g/LL	.	4.ryy	4.ryy	(8.g\	-ni	4.ryy	4.ryy	4.ryy	16.ee-\LL	.	16.gg\LL	.	16.ee-\LL	.	16.gg\LL	.
16E-\	.	.	.	.	.	.	.	.	.	.	.	.	.	.	.	.	.	.	.	.	.	.	.	.
.	.	.	.	32f\K	.	32d/K	.	32f/K	.	.	.	.	.	.	.	.	32dd\K	.	32ff\K	.	32dd\K	.	32ff\L	.
16E-\	.	.	.	16.g\	.	16.e-/	.	16.g/	.	.	.	.	.	.	.	.	16.ee-\	.	16.gg\	.	16.ee-\	.	16.gg\	.
16E-\	.	.	.	.	.	.	.	.	.	.	.	16a-\)	.	.	.	.	.	.	.	.	.	.	.	.
.	.	.	.	32a-\JJk	.	32f/JK	.	32a-/JJk	.	.	.	.	.	.	.	.	32ff\JJk	.	32aa-\JK	.	32ff\JJk	.	32aa-\JJJ	.
16E-\	.	.	.	8b-\	.	8g/J	.	8b-\	.	.	.	8b-\	sunt	.	.	.	8gg\	.	8bb-\J	.	8gg\	.	8bb-\	.
16E-\JJ	.	.	.	.	.	.	.	.	.	.	.	.	.	.	.	.	.	.	.	.	.	.	.	.
!	!	!	!	!	!	!	!	!LO:LB:g=original	!	!	!	!	!	!	!	!	!	!	!	!	!LO:LB:g=original	!	!	!
=43	=43	=43	=43	=43	=43	=43	=43	=43	=43	=43	=43	=43	=43	=43	=43	=43	=43	=43	=43	=43	=43	=43	=43	=43
16D\LL	.	.	.	4.r	.	8f/	.	8a-/	.	4.ryy	4.ryy	8a-\	Cae-	4.ryy	4.ryy	4.ryy	8ff\	.	8aa-\	.	4.r	.	4.r	.
16D\	.	.	.	.	.	.	.	.	.	.	.	.	.	.	.	.	.	.	.	.	.	.	.	.
16E-\	.	.	.	.	.	4e-T/	.	4gt/	.	.	.	8.g\	.	.	.	.	4ee-T\	.	4ggt\	.	.	.	.	.
16E-\	.	.	.	.	.	.	.	.	.	.	.	.	.	.	.	.	.	.	.	.	.	.	.	.
16BB-\	.	.	.	.	.	.	.	.	.	.	.	.	.	.	.	.	.	.	.	.	.	.	.	.
16BB-\JJ	.	.	.	.	.	.	.	.	.	.	.	16f\	.	.	.	.	.	.	.	.	.	.	.	.
!	!	!	!	!LO:LB:g=original	!	!	!	!	!	!	!	!	!	!	!	!	!	!	!	!	!	!	!	!
=44	=44	=44	=44	=44	=44	=44	=44	=44	=44	=44	=44	=44	=44	=44	=44	=44	=44	=44	=44	=44	=44	=44	=44	=44
16BB-/LL	.	4.r	.	16r	.	4d/	.	4f/	.	4.ryy	4.ryy	4f\	-li	4.ryy	4.ryy	4.ryy	4dd\	.	4ff\	.	16r	.	16r	.
16BB-/	.	.	.	(16B-\LL	.	.	.	.	.	.	.	.	.	.	.	.	.	.	.	.	(16b-\LL	.	(16b-\LL	.
16D/	.	.	.	16d\	.	.	.	.	.	.	.	.	.	.	.	.	.	.	.	.	16dd\	.	16dd\	.
16D/	.	.	.	16f\	.	.	.	.	.	.	.	.	.	.	.	.	.	.	.	.	16ff\	.	16ff\	.
16BB-/	.	.	.	16b-\	.	8dd\	.	8ff\	.	.	.	8r	.	.	.	.	8r	.	8r	.	16bb-\	.	16bb-\	.
16BB-/JJ	.	.	.	16dd\JJ)	.	.	.	.	.	.	.	.	.	.	.	.	.	.	.	.	16ddd\JJ)	.	16ddd\JJ)	.
!	!	!	!	!	!	!	!	!	!	!	!	!LO:LB:g=original	!	!	!	!	!	!	!	!	!	!	!LO:LB:g=original	!
=45	=45	=45	=45	=45	=45	=45	=45	=45	=45	=45	=45	=45	=45	=45	=45	=45	=45	=45	=45	=45	=45	=45	=45	=45
16C/LL	.	8r	.	8cc\L	.	8cc\L	.	8ee-\L	.	4.ryy	4.ryy	16e-\LL	Ple-	4.ryy	4.ryy	4.ryy	4.cc\	.	4.ee-\	.	8ccc\L	.	8ccc\L	.
16C/	.	.	.	.	.	.	.	.	.	.	.	16c\JJ	-ni	.	.	.	.	.	.	.	.	.	.	.
16AAn/	.	8r	.	8f\J	.	8cc\	.	8ee-\	.	.	.	4c\	sunt	.	.	.	.	.	.	.	8ff\J	.	8ff\J	.
16AA/	.	.	.	.	.	.	.	.	.	.	.	.	.	.	.	.	.	.	.	.	.	.	.	.
16FF/	.	8an\	.	8r	.	8cc\J	.	8ee-\J	.	.	.	.	.	.	.	.	.	.	.	.	8r	.	8r	.
16FF/JJ	.	.	.	.	.	.	.	.	.	.	.	.	.	.	.	.	.	.	.	.	.	.	.	.
=46	=46	=46	=46	=46	=46	=46	=46	=46	=46	=46	=46	=46	=46	=46	=46	=46	=46	=46	=46	=46	=46	=46	=46	=46
!	!	!	!	!LO:N:vis=0	!	!	!	!	!	!	!	!	!	!	!	!	!	!	!	!	!LO:TX:a:t=3	!	!LO:TX:a:t=3	!
!	!	!	!	!	!	!	!	!	!	!	!	!	!	!	!	!	!	!	!	!	!LO:N:vis=0	!	!LO:N:vis=0	!
(8BB-/L	.	8b-\L	.	2.r	.	8.b-/L	.	8.dd\L	.	4.ryy	4.ryy	8.d\	Cae-	4.ryy	4.ryy	4.ryy	4b-\	.	4dd\	.	2.r	.	2.r	.
8C/	.	8a-\J	.	.	.	.	.	.	.	.	.	.	.	.	.	.	.	.	.	.	.	.	.	.
.	.	.	.	.	.	16an/L	.	16ee-\K	.	.	.	16e-\	.	.	.	.	.	.	.	.	.	.	.	.
8D/J)	.	8r	.	.	.	16g/	.	8ff\J	.	.	.	8f\	-li	.	.	.	8r	.	8r	.	.	.	.	.
.	.	.	.	.	.	16f/JJ	.	.	.	.	.	.	.	.	.	.	.	.	.	.	.	.	.	.
!LO:LB:g=original	!	!LO:LB:g=original	!	!	!	!LO:LB:g=original	!	!	!	!	!	!	!	!	!	!	!LO:LB:g=original	!	!	!	!	!	!	!
=47	=47	=47	=47	=47	=47	=47	=47	=47	=47	=47	=47	=47	=47	=47	=47	=47	=47	=47	=47	=47	=47	=47	=47	=47
!	!	!LO:N:vis=00	!	!	!	!	!	!	!	!	!	!	!	!	!	!	!LO:TX:a:t=2.	!	!	!	!	!	!	!
!	!	!	!	!	!	!	!	!	!	!	!	!	!	!	!	!	!LO:N:vis=0	!	!	!	!	!	!	!
8E-\L	.	1.r	.	.	.	16g/LL	.	8ee-\	.	4.ryy	4.ryy	8e-\	et	4.ryy	4.ryy	4.ryy	2.r	.	4.r	.	.	.	.	.
.	.	.	.	.	.	16cc/JJ	.	.	.	.	.	.	.	.	.	.	.	.	.	.	.	.	.	.
8En\	.	.	.	.	.	4b-\	.	4ddt\	.	.	.	8.d\	ter-	.	.	.	.	.	.	.	.	.	.	.
8E\J	.	.	.	.	.	.	.	.	.	.	.	.	.	.	.	.	.	.	.	.	.	.	.	.
.	.	.	.	.	.	.	.	.	.	.	.	16c\	.	.	.	.	.	.	.	.	.	.	.	.
=48	=48	=48	=48	=48	=48	=48	=48	=48	=48	=48	=48	=48	=48	=48	=48	=48	=48	=48	=48	=48	=48	=48	=48	=48
!LO:TX:t=P:problem=mixed beam	!	!	!	!	!	!	!	!	!	!	!	!	!	!	!	!	!	!	!	!	!	!	!	!
8F\L	.	.	.	4.r	.	4an/	.	4cc\	.	4.ryy	4.ryy	4c\	-ra	4.ryy	4.ryy	4.ryy	.	.	8r	.	4.r	.	4.r	.
8FF/J	.	.	.	.	.	.	.	.	.	.	.	.	.	.	.	.	.	.	8r	.	.	.	.	.
8r	.	.	.	.	.	8r	.	8ff\	.	.	.	8r	.	.	.	.	.	.	8ff\	.	.	.	.	.
=49	=49	=49	=49	=49	=49	=49	=49	=49	=49	=49	=49	=49	=49	=49	=49	=49	=49	=49	=49	=49	=49	=49	=49	=49
8r	.	.	.	8r	.	8r	.	(32an\KLL	.	4.ryy	4.ryy	8r	.	4.ryy	4.ryy	4.ryy	8r	.	(32a\KLL	.	8r	.	8r	.
.	.	.	.	.	.	.	.	16.b-\JJ)	.	.	.	.	.	.	.	.	.	.	16.b-\JJ)	.	.	.	.	.
8r	.	.	.	8r	.	8r	.	(32dd\KLL	.	.	.	8r	.	.	.	.	8r	.	(32dd\KLL	.	8r	.	8r	.
!	!	!	!	!	!	!	!	!	!	!	!	!	!	!	!	!	!	!	!LO:SIC:o:s=:v:niejednoznaczny zapis	!	!	!	!	!
!	!	!	!	!	!	!	!	!	!	!	!	!	!	!	!	!	!	!	!LO:TX:a:t=g	!	!	!	!	!
.	.	.	.	.	.	.	.	16.ff\JJ)	.	.	.	.	.	.	.	.	.	.	16.ee-\JJ)	.	.	.	.	.
8FF/	.	.	.	8cc\	.	8an\	.	(32ee-\KLL	.	.	.	16e-\	Glo-	.	.	.	8a\	.	32ee-\KLL	.	8aan\	.	8ccc\	.
.	.	.	.	.	.	.	.	16.cc\JJ)	.	.	.	.	.	.	.	.	.	.	16.cc\JJ	.	.	.	.	.
.	.	.	.	.	.	.	.	.	.	.	.	16c\	.	.	.	.	.	.	.	.	.	.	.	.
!	!	!	!	!	!	!	!	!LO:LB:g=original	!	!	!	!	!	!	!	!	!	!	!	!	!	!	!	!
=50	=50	=50	=50	=50	=50	=50	=50	=50	=50	=50	=50	=50	=50	=50	=50	=50	=50	=50	=50	=50	=50	=50	=50	=50
8BB-/L	.	.	.	8dd\L	.	8b-\L	.	8dd\L	.	4.ryy	4.ryy	8d\	-ri-	4.ryy	4.ryy	4.ryy	8b-\L	.	8dd\L	.	8bb-\L	.	8ddd\L	.
8FF/J	.	.	.	8cc\J	.	8an\J	.	8cc\J	.	.	.	8c\	-a	.	.	.	8a-\J	.	8cc\J	.	8aa-\J	.	8ccc\J	.
8r	.	.	.	8r	.	8r	.	8ff\|	.	.	.	8r	.	.	.	.	8r	.	8ff\	.	8r	.	8r	.
!	!	!	!	!	!	!	!	!	!	!	!	!	!	!	!	!	!	!	!LO:LB:g=original	!	!	!	!	!
=51	=51	=51	=51	=51	=51	=51	=51	=51	=51	=51	=51	=51	=51	=51	=51	=51	=51	=51	=51	=51	=51	=51	=51	=51
!	!	!LO:N:vis=00	!	!LO:N:vis=00	!	!	!	!	!	!	!	!	!	!	!	!	!	!	!	!	!LO:TX:a:t=5	!	!LO:TX:a:t=5	!
!	!	!	!	!	!	!	!	!	!	!	!	!	!	!	!	!	!	!	!	!	!LO:N:vis=00	!	!LO:N:vis=00	!
8r	.	1.r	.	1.r	.	8r	.	(32an\KLL	.	4.ryy	4.ryy	8r	.	4.ryy	4.ryy	4.ryy	8r	.	(32a\KLL	.	1.r	.	1.r	.
.	.	.	.	.	.	.	.	16.b-\JJ)	.	.	.	.	.	.	.	.	.	.	16.b-\JJ)	.	.	.	.	.
8r	.	.	.	.	.	8r	.	(32dd-\KLL	.	.	.	8r	.	.	.	.	8r	.	(32dd\KLL	.	.	.	.	.
.	.	.	.	.	.	.	.	16.ff\JJ)	.	.	.	.	.	.	.	.	.	.	16.ee-\JJ)	.	.	.	.	.
8FF/	.	.	.	.	.	8an\	.	(32ee-\KLL	.	.	.	8e-\	Glo-	.	.	.	8a\	.	32ee-\KLL	.	.	.	.	.
.	.	.	.	.	.	.	.	16.cc\JJ)	.	.	.	.	.	.	.	.	.	.	16.cc\JJ	.	.	.	.	.
!	!	!	!	!	!	!	!	!	!	!	!	!LO:LB:g=original	!	!	!	!	!	!	!	!	!	!	!	!
=52	=52	=52	=52	=52	=52	=52	=52	=52	=52	=52	=52	=52	=52	=52	=52	=52	=52	=52	=52	=52	=52	=52	=52	=52
8BB-/L	.	.	.	.	.	8b-\L	.	8dd-X\L	.	4.ryy	4.ryy	8d-X\	.	4.ryy	4.ryy	4.ryy	8b-\L	.	8dd-X\L	.	.	.	.	.
8FF/J	.	.	.	.	.	8an\J	.	8cc\J	.	.	.	8c\	-ri-	.	.	.	8a-\J	.	8cc\	.	.	.	.	.
!	!	!	!	!	!	!	!	!LO:TX:i:b:t=dolce	!	!	!	!	!	!	!	!	!	!	!	!	!	!	!	!
8r	.	.	.	.	.	8r	.	8ff\	.	.	.	8f\	-a	.	.	.	8ff\	.	8ff\J	.	.	.	.	.
=53	=53	=53	=53	=53	=53	=53	=53	=53	=53	=53	=53	=53	=53	=53	=53	=53	=53	=53	=53	=53	=53	=53	=53	=53
!LO:TX:b:i:t=dol&colon;	!	!	!	!	!	!	!	!	!	!	!	!	!	!	!	!	!	!	!	!	!	!	!	!
8r	.	.	.	.	.	8r	.	(8bb-\L	.	4.ryy	4.ryy	8b-\	Tu-	4.ryy	4.ryy	4.ryy	(8b-\L	.	(8bb-\L	.	.	.	.	.
8F\L	.	.	.	.	.	8r	.	8aan\	.	.	.	8an\	-a	.	.	.	8a\	.	8aa\	.	.	.	.	.
!	!	!	!	!	!	!LO:TX:b:i:t=dol&colon;	!	!	!	!	!	!	!	!	!	!	!	!	!	!	!	!	!	!
8B-\J	.	.	.	.	.	8d/	.	8gg\J)	.	.	.	8g\	Os-	.	.	.	8g\J)	.	8gg\J)	.	.	.	.	.
!	!	!	!	!	!	!LO:LB:g=original	!	!	!	!	!	!	!	!	!	!	!	!	!	!	!	!	!	!
=54	=54	=54	=54	=54	=54	=54	=54	=54	=54	=54	=54	=54	=54	=54	=54	=54	=54	=54	=54	=54	=54	=54	=54	=54
8An\L	.	.	.	.	.	8c/L	.	(8ff\L	.	4.ryy	4.ryy	8f\	-san-	4.ryy	4.ryy	4.ryy	(8f/L	.	(8ff\L	.	.	.	.	.
8G\	.	.	.	.	.	8B-/	.	8ee-\	.	.	.	8e-\	.	.	.	.	8e-/	.	8ee-\	.	.	.	.	.
8F\J	.	.	.	.	.	8A-/J	.	8dd\J)	.	.	.	8d\	-na	.	.	.	8d/J)	.	8dd\J)	.	.	.	.	.
=55	=55	=55	=55	=55	=55	=55	=55	=55	=55	=55	=55	=55	=55	=55	=55	=55	=55	=55	=55	=55	=55	=55	=55	=55
!LO:TX:t=P:problem=mixed beam	!	!	!	!	!	!	!	!LO:TX:a:t=1.	!	!	!	!	!	!	!	!	!LO:TX:a:t=1.	!	!	!	!	!	!	!
8E-\L	.	4.r	.	4.r	.	4.r	.	4.r	.	4.ryy	4.ryy	16g\LL	in	4.ryy	4.ryy	4.ryy	4.r	.	4.r	.	4.r	.	4.r	.
.	.	.	.	.	.	.	.	.	.	.	.	16e-\JJ	.	.	.	.	.	.	.	.	.	.	.	.
8F\	.	.	.	.	.	.	.	.	.	.	.	8d\	ex-	.	.	.	.	.	.	.	.	.	.	.
8FF/J	.	.	.	.	.	.	.	.	.	.	.	16c/LL	-cel-	.	.	.	.	.	.	.	.	.	.	.
.	.	.	.	.	.	.	.	.	.	.	.	16B-/JJ	.	.	.	.	.	.	.	.	.	.	.	.
=56	=56	=56	=56	=56	=56	=56	=56	=56	=56	=56	=56	=56	=56	=56	=56	=56	=56	=56	=56	=56	=56	=56	=56	=56
4BB-/	.	8r	.	8r	.	8r	.	8r	.	4.ryy	4.ryy	4B-/	-sis	4.ryy	4.ryy	4.ryy	8r	.	8r	.	8r	.	8r	.
!	!	!	!	!	!	!	!	!	!LO:DY:b:t=po&colon;	!	!	!	!	!	!	!	!	!	!	!	!	!	!	!
.	.	8B-/L	.	8d\L	.	8B-/L	p	8d/L	p	.	.	.	.	.	.	.	8b-\L	.	(8dd\L	.	8b-\L	.	8dd\L	.
8r	.	8c/J	.	8e-\J	.	8c/J	.	8e-/J	.	.	.	8r	.	.	.	.	8cc\J	.	8ee-\J)	.	8cc\J	.	8ee-\J	.
!LO:LB:g=original	!	!	!	!	!	!	!	!LO:LB:g=original	!	!	!	!	!	!	!	!	!	!	!	!	!	!	!	!
=57	=57	=57	=57	=57	=57	=57	=57	=57	=57	=57	=57	=57	=57	=57	=57	=57	=57	=57	=57	=57	=57	=57	=57	=57
!	!	!	!	!	!	!	!	!	!	!	!	!LO:TX:a:t=10	!	!	!	!	!	!	!	!	!	!	!	!
!	!	!	!	!	!	!	!	!	!	!	!	!LO:N:vis=00	!	!	!	!	!	!	!	!	!	!	!	!
8BB-/L	.	(16d\LL	.	(16f\LL	.	(16d/LL	.	(16f/LL	.	4.ryy	4.ryy	1.r	.	4.ryy	4.ryy	4.ryy	(16dd\LL	.	(16ff\LL	.	(16dd\LL	.	(16ff\LL	.
.	.	16c\	.	16e-\	.	16c/	.	16e-/	.	.	.	.	.	.	.	.	16cc\	.	16ee-\	.	16cc\	.	16ee-\	.
8BB-/	.	16d\	.	16f\	.	16d/	.	16f/	.	.	.	.	.	.	.	.	16dd\	.	16ff\	.	16dd\	.	16ff\	.
.	.	16e-\JJ)	.	16g\JJ)	.	16e-/J	.	16g/J	.	.	.	.	.	.	.	.	16ee-\J)	.	16gg\J)	.	16ee-\JJ)	.	16gg\JJ)	.
8BB-/J	.	8f\	.	8a-\	.	8f/J)	.	8a-/J)	.	.	.	.	.	.	.	.	8ff\J	.	8aa-\J	.	8ff\	.	8aa-\	.
!	!	!	!	!	!	!	!	!	!	!	!	!	!	!	!	!	!LO:LB:g=original	!	!	!	!LO:LB:g=original	!	!	!
=58	=58	=58	=58	=58	=58	=58	=58	=58	=58	=58	=58	=58	=58	=58	=58	=58	=58	=58	=58	=58	=58	=58	=58	=58
8BB-/L	.	(16e-\LL	.	(16g\LL	.	(16e-/LL	.	(16g/LL	.	4.ryy	4.ryy	.	.	4.ryy	4.ryy	4.ryy	(16ee-\LL	.	(16gg\LL	.	(16ee-\LL	.	(16gg\LL	.
.	.	16d\	.	16f\	.	16d/	.	16f/	.	.	.	.	.	.	.	.	16dd\	.	16ff\	.	16dd\	.	16ff\	.
8BB-/	.	16e-\	.	16g\	.	16e-/	.	16g/	.	.	.	.	.	.	.	.	16ee-\	.	16gg\	.	16ee-\	.	16gg\	.
.	.	16f\JJ)	.	16a-\JJ)	.	16f/J	.	16a-/J	.	.	.	.	.	.	.	.	16ff\J)	.	16aa-\JJ)	.	16ff\JJ)	.	16aa-\JJ)	.
8BB-/J	.	8g\	.	8b-\	.	8g/J)	.	8b-/J)	.	.	.	.	.	.	.	.	8gg\J	.	8bb-\	.	8gg\	.	8bb-\	.
!	!	!	!	!LO:LB:g=original	!	!	!	!	!	!	!	!	!	!	!	!	!	!	!LO:LB:g=original	!	!	!	!LO:LB:g=original	!
=59	=59	=59	=59	=59	=59	=59	=59	=59	=59	=59	=59	=59	=59	=59	=59	=59	=59	=59	=59	=59	=59	=59	=59	=59
8BB-/L	.	16g\LL	.	16b-\LL	.	16g/LL	.	16b-/LL	.	4.ryy	4.ryy	.	.	4.ryy	4.ryy	4.ryy	16gg\LL	.	16bb-\LL	.	16gg\LL	.	16bb-\LL	.
.	.	16a-\JJ	.	16cc\	.	16a-/	.	16cc/	.	.	.	.	.	.	.	.	16aa-\	.	16ccc\	.	16aa-\JJ	.	16ccc\	.
8BB-/	.	16a-\LL	.	16cc\	.	16a-/	.	16cc/	.	.	.	.	.	.	.	.	16aa-\	.	16ccc\	.	16aa-\LL	.	16ccc\	.
.	.	16g\	.	16b-\	.	16g/	.	16b-/	.	.	.	.	.	.	.	.	16gg\	.	16bb-\	.	16gg\	.	16bb-\	.
8BB-/J	.	16f\	.	16a-\	.	16f/	.	16a-/	.	.	.	.	.	.	.	.	16ff\	.	16aa-\	.	16ff\	.	16aa-\	.
.	.	16e-\JJ	.	16g\JJ	.	16e-/JJ	.	16g/JJ	.	.	.	.	.	.	.	.	16ee-\JJ	.	16gg\JJ	.	16ee-\JJ	.	16gg\JJ	.
=60	=60	=60	=60	=60	=60	=60	=60	=60	=60	=60	=60	=60	=60	=60	=60	=60	=60	=60	=60	=60	=60	=60	=60	=60
8BB-/L	.	8e-\L	.	8g\L	.	8e-/L	.	8g/L	.	4.ryy	4.ryy	.	.	4.ryy	4.ryy	4.ryy	8ee-\L	.	8gg\L	.	8ee-\L	.	8gg\L	.
8BBB-/J	.	8d\J	.	8f\J	.	8d/J	.	8f/J	.	.	.	.	.	.	.	.	8dd\J	.	8ff\J	.	8dd\J	.	8ff\J	.
!	!	!	!	!	!	!	!	!LO:TX:b:i:t=dolce	!	!	!	!	!	!	!	!	!	!	!	!	!	!	!	!
8r	.	8r	.	8r	.	8r	.	8a-T/	.	.	.	.	.	.	.	.	8aa-\	.	8aa-T\	.	8r	.	8r	.
!	!	!	!	!	!	!LO:LB:g=original	!	!	!	!	!	!	!	!	!	!	!	!	!	!	!	!	!	!
=61	=61	=61	=61	=61	=61	=61	=61	=61	=61	=61	=61	=61	=61	=61	=61	=61	=61	=61	=61	=61	=61	=61	=61	=61
!	!	!	!	!	!	!	!	!	!	!	!	!LO:N:vis=00	!	!	!	!	!	!	!	!	!	!	!	!
8E-\L	.	8r	.	8r	.	8r	.	16g/LL	.	4.ryy	4.ryy	1.r	.	4.ryy	4.ryy	4.ryy	16gg\LL	.	16gg\LL	.	8r	.	8r	.
.	.	.	.	.	.	.	.	16Bn/JJ	.	.	.	.	.	.	.	.	16bX\JJ	.	16bX\JJ	.	.	.	.	.
!	!	!	!	!	!	!LO:TX:b:i:t=dol&colon;	!	!	!	!	!	!	!	!	!	!	!	!	!	!	!	!	!	!
.	.	.	.	.	.	.	.	8qB/	.	.	.	.	.	.	.	.	8qb/	.	.	.	.	.	.	.
8E-\	.	(16e-\LL	.	(16e-\LL	.	8.gt/L	.	4c/	.	.	.	.	.	.	.	.	4cc\	.	(8.gg\L	.	(16ee-\LL	.	(16ee-\LL	.
.	.	16g\	.	16g\	.	.	.	.	.	.	.	.	.	.	.	.	.	.	.	.	16gg\	.	16gg\	.
8E-\J	.	16bn\	.	16bn\	.	.	.	.	.	.	.	.	.	.	.	.	.	.	.	.	16bbn\	.	16bbn\	.
.	.	16cc\JJ)	.	16cc\JJ)	.	32f/LL	.	.	.	.	.	.	.	.	.	.	.	.	32ff\LL	.	16ccc\JJ)	.	16ccc\JJ)	.
.	.	.	.	.	.	32g/JJJ	.	.	.	.	.	.	.	.	.	.	.	.	32gg\JJJ)	.	.	.	.	.
=62	=62	=62	=62	=62	=62	=62	=62	=62	=62	=62	=62	=62	=62	=62	=62	=62	=62	=62	=62	=62	=62	=62	=62	=62
8D\L	.	8r	.	8r	.	16f/LL	.	8r	.	4.ryy	4.ryy	.	.	4.ryy	4.ryy	4.ryy	8r	.	16ff\LL	.	8r	.	8r	.
.	.	.	.	.	.	16An/JJ	.	.	.	.	.	.	.	.	.	.	.	.	16a\JJ	.	.	.	.	.
.	.	.	.	.	.	8qA/	.	.	.	.	.	.	.	.	.	.	.	.	8qa/	.	.	.	.	.
8D\	.	(16d\LL	.	(16d\LL	.	4B-/	.	4fT/	.	.	.	.	.	.	.	.	4f/	.	4b-\	.	(16dd\LL	.	(16dd\LL	.
.	.	16f\	.	16f\	.	.	.	.	.	.	.	.	.	.	.	.	.	.	.	.	16ff\	.	16ff\	.
8D\J	.	16an\	.	16an\	.	.	.	.	.	.	.	.	.	.	.	.	.	.	.	.	16aan\	.	16aan\	.
.	.	16b-\JJ)	.	16b-\JJ)	.	.	.	.	.	.	.	.	.	.	.	.	.	.	.	.	16bb-\JJ)	.	16bb-\JJ)	.
!	!	!LO:LB:g=original	!	!	!	!	!	!	!	!	!	!	!	!	!	!	!	!	!	!	!	!	!	!
=63	=63	=63	=63	=63	=63	=63	=63	=63	=63	=63	=63	=63	=63	=63	=63	=63	=63	=63	=63	=63	=63	=63	=63	=63
!LO:TX:t=P:problem=mixed beam	!	!	!	!	!	!	!LO:TUP:b:problem=klamra łukowa	!	!	!	!	!	!	!	!	!	!	!	!	!	!	!	!	!
!LO:TX:b:i:t=dol&colon;	!	!	!	!	!	!	!	!LO:TUP:b	!	!	!	!	!	!	!	!	!	!	!	!	!	!	!	!
8E-\L	.	32ee-\LLL	.	32ee-\LLL	.	4.r	.	24g/LL	.	4.ryy	4.ryy	.	.	4.ryy	4.ryy	4.ryy	32g/LLL	.	32gg\LLL	.	32eee-\LLL	.	32eee-\LLL	.
.	.	32dd\J	.	32dd\J	.	.	.	.	.	.	.	.	.	.	.	.	32f/J	.	32ff\J	.	32ddd\J	.	32ddd\J	.
.	.	.	.	.	.	.	.	24f/	.	.	.	.	.	.	.	.	.	.	.	.	.	.	.	.
.	.	16cc\JJ	.	16cc\JJ	.	.	.	.	.	.	.	.	.	.	.	.	16e-/JJ	.	16ee-\JJ	.	16ccc\JJ	.	16ccc\JJ	.
.	.	.	.	.	.	.	.	24e-/JJ	.	.	.	.	.	.	.	.	.	.	.	.	.	.	.	.
8F\	.	8b-\L	.	8b-\L	.	.	.	8d/L	.	.	.	.	.	.	.	.	8d/L	.	8dd\L	.	8bb-\L	.	8bb-\L	.
8FF/J	.	8an\J	.	8an\J	.	.	.	8c/J	.	.	.	.	.	.	.	.	8c/J	.	8cc\J	.	8aan\J	.	8aan\J	.
*	*	*	*	*	*	*	*	*	*	*	*	*	*	*	*	*	*	*	*	*	*custos	*	*	*
!	!	!	!	!	!	!	!	!LO:LB:g=original	!	!	!	!	!	!	!	!	!	!	!	!	!LO:LB:g=original	!	!	!
=64	=64	=64	=64	=64	=64	=64	=64	=64	=64	=64	=64	=64	=64	=64	=64	=64	=64	=64	=64	=64	=64	=64	=64	=64
(16BB-/LL	.	16b-\LL	.	16b-\LL	.	4.fT/	.	4B-/	.	4.ryy	4.ryy	.	.	4.ryy	4.ryy	4.ryy	8B-/L	.	8b-\L	.	16bb-\LL	.	16bb-\LL	.
16C/	.	16cc\	.	16cc\	.	.	.	.	.	.	.	.	.	.	.	.	.	.	.	.	16ccc\	.	16ccc\	.
16D/	.	16dd\	.	16dd\	.	.	.	.	.	.	.	.	.	.	.	.	8f/	.	8ff\	.	16ddd\	.	16ddd\	.
16C/	.	16cc\	.	16cc\	.	.	.	.	.	.	.	.	.	.	.	.	.	.	.	.	16ccc\	.	16ccc\	.
16D/	.	16dd\	.	16dd\	.	.	.	8r	.	.	.	.	.	.	.	.	8f/J	.	8ff\J	.	16ddd\	.	16ddd\	.
16BB-/JJ)	.	16b-\JJ	.	16b-\JJ	.	.	.	.	.	.	.	.	.	.	.	.	.	.	.	.	16bb-\JJ	.	16bb-\JJ	.
!	!	!	!	!	!	!	!	!	!	!	!	!	!	!	!	!	!	!	!	!	!	!	!LO:TX:b:t=Cito Vertate&colon;	!
!	!	!	!	!LO:PB:g=original	!	!	!	!	!	!	!	!	!	!	!	!	!	!	!	!	!	!	!LO:PB:g=original	!
=65	=65	=65	=65	=65	=65	=65	=65	=65	=65	=65	=65	=65	=65	=65	=65	=65	=65	=65	=65	=65	=65	=65	=65	=65
!LO:TX:t=P:problem=mixed beam	!	!	!	!	!	!	!	!LO:TUP:b:problem=klamra łukowa	!	!	!	!	!	!	!	!	!	!	!	!	!	!	!	!
!	!	!	!	!	!	!	!	!LO:TUP:b	!	!	!	!LO:N:vis=0	!	!	!	!	!	!	!	!	!	!	!	!
8E-\L	.	16e-\LL	.	16e-\LL	.	32e-/LLL	.	24g/LL	.	4.ryy	4.ryy	2.r	.	4.ryy	4.ryy	4.ryy	32g/LLL	.	32gg\LLL	.	16ee-\LL	.	16eee-\LL	.
.	.	.	.	.	.	32d/J	.	.	.	.	.	.	.	.	.	.	32f/J	.	32ff\J	.	.	.	.	.
.	.	.	.	.	.	.	.	24f/	.	.	.	.	.	.	.	.	.	.	.	.	.	.	.	.
.	.	16c\JJ	.	16c\JJ	.	16c/JJ	.	.	.	.	.	.	.	.	.	.	16e-/JJ	.	16ee-\JJ	.	16cc\JJ	.	16ccc\JJ	.
.	.	.	.	.	.	.	.	24e-/JJ	.	.	.	.	.	.	.	.	.	.	.	.	.	.	.	.
!	!	!LO:TX:t=P:problem=mixed beam	!	!LO:TX:t=P:problem=mixed beam	!	!	!	!	!	!	!	!	!	!	!	!	!	!	!	!	!	!	!	!
8F\	.	8f\L	.	8f\L	.	8B-/L	.	8d/L	.	.	.	.	.	.	.	.	8d/L	.	8dd\L	.	8ff\L	.	8fff\L	.
8FF/J	.	8F/J	.	8F/J	.	8An/J	.	8c/J	.	.	.	.	.	.	.	.	8c/J	.	8cc\J	.	8ff\J	.	8fff\J	.
!	!	!	!	!	!	!	!	!	!	!	!	!	!	!	!	!	!	!	!LO:PB:g=original	!	!	!	!	!
=66	=66	=66	=66	=66	=66	=66	=66	=66	=66	=66	=66	=66	=66	=66	=66	=66	=66	=66	=66	=66	=66	=66	=66	=66
16B-\LL	.	4B-/	.	4B-/	.	4B-/	.	4B-/	.	4.ryy	4.ryy	.	.	4.ryy	4.ryy	4.ryy	4B-/	.	4b-\	.	4bb-\	.	4bb-\	.
16G\	.	.	.	.	.	.	.	.	.	.	.	.	.	.	.	.	.	.	.	.	.	.	.	.
16F\	.	.	.	.	.	.	.	.	.	.	.	.	.	.	.	.	.	.	.	.	.	.	.	.
16E-\	.	.	.	.	.	.	.	.	.	.	.	.	.	.	.	.	.	.	.	.	.	.	.	.
16D\	.	8r	.	8r	.	8r	.	8r	.	.	.	.	.	.	.	.	8r	.	8r	.	8r	.	8r	.
16C\JJ	.	.	.	.	.	.	.	.	.	.	.	.	.	.	.	.	.	.	.	.	.	.	.	.
!	!	!	!	!	!	!	!	!	!	!	!	!LO:LB:g=original	!	!	!	!	!LO:LB:g=original	!	!	!	!	!	!	!
=67	=67	=67	=67	=67	=67	=67	=67	=67	=67	=67	=67	=67	=67	=67	=67	=67	=67	=67	=67	=67	=67	=67	=67	=67
8BB-/L	.	4.r	.	4.r	.	16B-/LL	p	16d/LL	.	4.ryy	4.ryy	16d\	Be-	4.ryy	4.ryy	4.ryy	(16b-\LL	.	(16dd\LL	.	4.r	.	4.r	.
.	.	.	.	.	.	16c/JJ	.	16e-/JJ	.	.	.	16e-\	-ne-	.	.	.	16cc\JJ)	.	16ee-\JJ)	.	.	.	.	.
!	!	!	!	!	!	!	!	!	!LO:DY:b:t=po&colon;	!	!	!	!	!	!	!	!	!	!	!	!	!	!	!
8BBB-/J	.	.	.	.	.	8d/L	.	8f/L	p	.	.	(8f\	-di-	.	.	.	8dd\L	.	8ff\L	.	.	.	.	.
8r	.	.	.	.	.	8c/J	.	8e-/J	.	.	.	8e-\)	.	.	.	.	8cc\J	.	8ee-\J	.	.	.	.	.
!LO:PB:g=original	!	!	!	!	!	!LO:LB:g=original	!	!	!	!	!	!	!	!	!	!	!	!	!	!	!	!	!	!
=68	=68	=68	=68	=68	=68	=68	=68	=68	=68	=68	=68	=68	=68	=68	=68	=68	=68	=68	=68	=68	=68	=68	=68	=68
!LO:TX:t=P:problem=mixed beam	!	!	!	!	!	!	!	!	!	!	!	!	!	!	!	!	!	!	!	!	!	!	!	!
8BB-/L	.	8b-\L	.	8b-\L	.	4B-/	.	4d/	.	4.ryy	4.ryy	4d\	-ctus	4.ryy	4.ryy	4.ryy	4b-\	.	4dd\	.	8bb-\L	.	8bb-\L	.
16.F\L	.	16.f\L	.	16.f\L	.	.	.	.	.	.	.	.	.	.	.	.	.	.	.	.	16.ff\L	.	16.fff\L	.
32E-\K	.	32e-\K	.	32e-\K	.	.	.	.	.	.	.	.	.	.	.	.	.	.	.	.	32ee-\K	.	32eee-\K	.
16.D\	.	16.d\	.	16.d\	.	8r	.	8r	.	.	.	8r	.	.	.	.	8r	.	8r	.	16.dd\	.	16.ddd\	.
32C\JJk	.	32c\JJk	.	32c\JJk	.	.	.	.	.	.	.	.	.	.	.	.	.	.	.	.	32cc\JJk	.	32ccc\JJk	.
=69	=69	=69	=69	=69	=69	=69	=69	=69	=69	=69	=69	=69	=69	=69	=69	=69	=69	=69	=69	=69	=69	=69	=69	=69
!	!	!	!	!	!	!LO:TX:t=P:problem=mixed beam	!	!LO:TX:t=P:problem=mixed beam	!	!	!	!	!	!	!	!	!	!	!	!	!	!	!	!
8BB-/L	p	4B-/	.	4B-/	.	8d/L	.	8f/L	.	4.ryy	4.ryy	8r	.	4.ryy	4.ryy	4.ryy	8dd\L	.	8ff\L	.	4b-/	.	4bb-\	.
8BB-/	.	.	.	.	.	8b-\	.	8dd\	.	.	.	4f\	qui	.	.	.	8ff\	.	8bb-\	.	.	.	.	.
8BB-/J	.	8r	.	8r	.	8d/J	.	8f/J	.	.	.	.	.	.	.	.	8dd\J	.	8ff\J	.	8r	.	8r	.
=70	=70	=70	=70	=70	=70	=70	=70	=70	=70	=70	=70	=70	=70	=70	=70	=70	=70	=70	=70	=70	=70	=70	=70	=70
!	!	!LO:TX:a:t=2	!	!LO:N:via=0	!	!	!	!	!	!	!	!	!	!	!	!	!	!	!	!	!LO:TX:a:t=2	!	!LO:TX:a:t=2	!
!	!	!LO:N:vis=0	!	!	!	!	!	!	!	!	!	!	!	!	!	!	!	!	!	!	!LO:N:vis=0	!	!LO:N:vis=0	!
4BB-/	.	2.r	.	2.r	.	8d/L	.	8f/L	.	4.ryy	4.ryy	8f\L	ve-	4.ryy	4.ryy	4.ryy	8dd\L	.	8ff\L	.	2.r	.	2.r	.
.	.	.	.	.	.	16e-/L	.	16g/L	.	.	.	16g\L	.	.	.	.	16ee-\L	.	16gg\L	.	.	.	.	.
.	.	.	.	.	.	16d/	.	16f/	.	.	.	16f\	.	.	.	.	16dd\	.	16ff\	.	.	.	.	.
8r	.	.	.	.	.	16c/	.	16e-/	.	.	.	16e-\	.	.	.	.	16cc\	.	16ee-\	.	.	.	.	.
.	.	.	.	.	.	16B-/JJ	.	16d/JJ	.	.	.	16d\JJ	.	.	.	.	16b-\JJ	.	16dd\JJ	.	.	.	.	.
=71	=71	=71	=71	=71	=71	=71	=71	=71	=71	=71	=71	=71	=71	=71	=71	=71	=71	=71	=71	=71	=71	=71	=71	=71
8C/L	.	.	.	.	.	4.c/	.	4.e-T/	.	4.ryy	4.ryy	4.e-\	.	4.ryy	4.ryy	4.ryy	4.ccT\	.	4.ee-T\	.	.	.	.	.
8AAn/	.	.	.	.	.	.	.	.	.	.	.	.	.	.	.	.	.	.	.	.	.	.	.	.
8FF/J	.	.	.	.	.	.	.	.	.	.	.	.	.	.	.	.	.	.	.	.	.	.	.	.
!	!	!	!	!	!	!	!	!LO:LB:g=original	!	!	!	!	!	!	!	!	!	!	!	!	!LO:PB:g=original	!	!	!
=72	=72	=72	=72	=72	=72	=72	=72	=72	=72	=72	=72	=72	=72	=72	=72	=72	=72	=72	=72	=72	=72	=72	=72	=72
!LO:TX:t=P:problem=mixed beam	!	!	!	!	!	!	!	!	!	!	!	!	!	!	!	!	!	!	!	!	!	!	!	!
8BB-/L	.	8r	.	8r	.	4B-/	.	4d/	.	4.ryy	4.ryy	4d\	-nit	4.ryy	4.ryy	4.ryy	4b-\	.	4dd\	.	8r	.	8r	.
16.B-\L	.	16.b-\LL	.	16.b-\LL	.	.	.	.	.	.	.	.	.	.	.	.	.	.	.	.	16.bb-\LL	.	16.bb-\LL	.
32A-\K	.	32a-\K	.	32a-\K	.	.	.	.	.	.	.	.	.	.	.	.	.	.	.	.	32aa-\K	.	32aa-\K	.
16.G\	.	16.g\	.	16.g\	.	8r	.	8r	.	.	.	8r	.	.	.	.	8r	.	8r	.	16.gg\	.	16.gg\	.
32F\JJk	.	32f\JJk	.	32f\JJk	.	.	.	.	.	.	.	.	.	.	.	.	.	.	.	.	32ff\JJk	.	32ff\JJk	.
!	!	!LO:LB:g=original	!	!	!	!	!	!	!	!	!	!	!	!	!	!	!	!	!	!	!	!	!	!
=73	=73	=73	=73	=73	=73	=73	=73	=73	=73	=73	=73	=73	=73	=73	=73	=73	=73	=73	=73	=73	=73	=73	=73	=73
8E-\L	.	4e-\	.	4e-\	.	8g\L	.	8b-\L	.	4.ryy	4.ryy	8r	.	4.ryy	4.ryy	4.ryy	8r	.	8b-\L	.	4ee-\	.	4ee-\	.
8E-\	.	.	.	.	.	8ee-\	.	8ee-\	.	.	.	4e-\	.	.	.	.	8r	.	8ee-\	.	.	.	.	.
8E-\J	.	8r	.	8r	.	8g\J	.	8b-\J	.	.	.	.	.	.	.	.	8g/	.	8b-\J	.	8r	.	8r	.
=74	=74	=74	=74	=74	=74	=74	=74	=74	=74	=74	=74	=74	=74	=74	=74	=74	=74	=74	=74	=74	=74	=74	=74	=74
!	!	!LO:TX:a:t=8	!	!LO:TX:a:t=8	!	!	!	!	!	!	!	!	!	!	!	!	!	!	!	!	!LO:TX:a:t=8	!	!LO:TX:a:t=8.	!
!	!	!LO:N:vis=00	!	!LO:N:vis=00	!	!	!	!	!	!	!	!	!	!	!	!	!	!	!	!	!LO:N:vis=00	!	!LO:N:vis=00	!
4E-\	.	1.r	.	1.r	.	8g/L	.	8b-\L	.	4.ryy	4.ryy	8b-\L	ve-	4.ryy	4.ryy	4.ryy	8g/L	.	8b-\L	.	1.r	.	1.r	.
.	.	.	.	.	.	16a-/L	.	16cc\L	.	.	.	16cc\L	.	.	.	.	16a-/L	.	16cc\L	.	.	.	.	.
.	.	.	.	.	.	16g/	.	16b-\	.	.	.	16b-\	.	.	.	.	16g/	.	16b-\	.	.	.	.	.
8r	.	.	.	.	.	16f/	.	16a-\	.	.	.	16a-\	.	.	.	.	16f/	.	16a-\	.	.	.	.	.
.	.	.	.	.	.	16e-/JJ	.	16g\JJ	.	.	.	16g\JJ	.	.	.	.	16e-/JJ	.	16g\JJ	.	.	.	.	.
!	!	!	!	!	!	!	!	!	!	!	!	!LO:LB:g=original	!	!	!	!	!	!	!LO:LB:g=original	!	!	!	!	!
=75	=75	=75	=75	=75	=75	=75	=75	=75	=75	=75	=75	=75	=75	=75	=75	=75	=75	=75	=75	=75	=75	=75	=75	=75
8F\L	.	.	.	.	.	4.f/	.	4.a-/	.	4.ryy	4.ryy	4.a-\	.	4.ryy	4.ryy	4.ryy	4.fT/	.	4.a-/	.	.	.	.	.
8D\	.	.	.	.	.	.	.	.	.	.	.	.	.	.	.	.	.	.	.	.	.	.	.	.
8BB-\J	.	.	.	.	.	.	.	.	.	.	.	.	.	.	.	.	.	.	.	.	.	.	.	.
!LO:LB:g=original	!	!	!	!	!	!	!	!	!	!	!	!	!	!	!	!	!	!	!	!	!	!	!	!
=76	=76	=76	=76	=76	=76	=76	=76	=76	=76	=76	=76	=76	=76	=76	=76	=76	=76	=76	=76	=76	=76	=76	=76	=76
!LO:TX:t=P:problem=mixed beam	!	!	!	!	!	!	!	!LO:TX:t=P:problem=mixed beam	!	!	!	!	!	!	!	!	!	!	!	!	!	!	!	!
8E-\L	.	.	.	.	.	8e-/L	.	8g/L	.	4.ryy	4.ryy	16g\LL	.	4.ryy	4.ryy	4.ryy	4e-/	.	4g/	.	.	.	.	.
.	.	.	.	.	.	.	.	.	.	.	.	16b-\JJ	.	.	.	.	.	.	.	.	.	.	.	.
8EE-/	.	.	.	.	.	8g/	.	8ee-\	.	.	.	8g\L	.	.	.	.	.	.	.	.	.	.	.	.
8FF/J	.	.	.	.	.	8a-/J	.	8dd\J	.	.	.	8f\J	.	.	.	.	8r	.	8r	.	.	.	.	.
!	!	!	!	!	!	!LO:LB:g=original	!	!	!	!	!	!	!	!	!	!	!LO:PB:g=original	!	!	!	!	!	!	!
=77	=77	=77	=77	=77	=77	=77	=77	=77	=77	=77	=77	=77	=77	=77	=77	=77	=77	=77	=77	=77	=77	=77	=77	=77
!	!	!	!	!	!	!	!	!	!	!	!	!	!	!	!	!	!LO:TX:a:t=4.	!	!LO:TX:a:t=4	!	!	!	!	!
!	!	!	!	!	!	!	!	!	!	!	!	!	!	!	!	!	!LO:N:vis=00	!	!LO:N:vis=00	!	!	!	!	!
8GG/L	.	.	.	.	.	8b-\L	.	8ee-\L	.	4.ryy	4.ryy	16e-\LL	.	4.ryy	4.ryy	4.ryy	1.r	.	1.r	.	.	.	.	.
.	.	.	.	.	.	.	.	.	.	.	.	16f\	.	.	.	.	.	.	.	.	.	.	.	.
8GG/	.	.	.	.	.	8b-\	.	8dd-X\	.	.	.	16g\	.	.	.	.	.	.	.	.	.	.	.	.
.	.	.	.	.	.	.	.	.	.	.	.	16a-\	.	.	.	.	.	.	.	.	.	.	.	.
!	!	!	!	!	!	!	!	!	!	!	!	!LO:TX:t=P:problem=mixed beam	!	!	!	!	!	!	!	!	!	!	!	!
8GG/J	.	.	.	.	.	8b-\J	.	8dd-\J	.	.	.	16b-\	.	.	.	.	.	.	.	.	.	.	.	.
.	.	.	.	.	.	.	.	.	.	.	.	16d-X/JJ	.	.	.	.	.	.	.	.	.	.	.	.
=78	=78	=78	=78	=78	=78	=78	=78	=78	=78	=78	=78	=78	=78	=78	=78	=78	=78	=78	=78	=78	=78	=78	=78	=78
!	!	!LO:N:vis=00	!	!LO:N:vis=00	!	!	!	!	!	!	!	!	!	!	!	!	!	!	!	!	!LO:N:vis=00	!	!LO:N:vis=00	!
8AA-/L	.	1.r	.	1.r	.	8e-/L	.	8cc\L	.	4.ryy	4.ryy	8c\L	.	4.ryy	4.ryy	4.ryy	.	.	.	.	1.r	.	1.r	.
8FF/J	.	.	.	.	.	8a-/	.	8ff\	.	.	.	8f\	.	.	.	.	.	.	.	.	.	.	.	.
8r	.	.	.	.	.	8b-/J	.	8gg\J	.	.	.	8g\J	.	.	.	.	.	.	.	.	.	.	.	.
=79	=79	=79	=79	=79	=79	=79	=79	=79	=79	=79	=79	=79	=79	=79	=79	=79	=79	=79	=79	=79	=79	=79	=79	=79
!LO:TX:t=P:problem=mixed beam	!	!	!	!	!	!	!	!	!	!	!	!	!	!	!	!	!	!	!	!	!	!	!	!
8F\L	.	.	.	.	.	4cc\	.	4aa-\	.	4.ryy	4.ryy	16a-\LL	.	4.ryy	4.ryy	4.ryy	.	.	.	.	.	.	.	.
.	.	.	.	.	.	.	.	.	.	.	.	16cc\JJ	.	.	.	.	.	.	.	.	.	.	.	.
8FF/	.	.	.	.	.	.	.	.	.	.	.	8a-\	.	.	.	.	.	.	.	.	.	.	.	.
8GG/J	.	.	.	.	.	8b-\	.	8gg\	.	.	.	8g\	.	.	.	.	.	.	.	.	.	.	.	.
!	!	!	!	!	!	!	!	!LO:LB:g=original	!	!	!	!	!	!	!	!	!	!	!	!	!	!	!	!
=80	=80	=80	=80	=80	=80	=80	=80	=80	=80	=80	=80	=80	=80	=80	=80	=80	=80	=80	=80	=80	=80	=80	=80	=80
8AA-/L	.	.	.	.	.	4a-/	.	4ff\	.	4.ryy	4.ryy	16f\LL	.	4.ryy	4.ryy	4.ryy	.	.	.	.	.	.	.	.
.	.	.	.	.	.	.	.	.	.	.	.	16a-\JJ	.	.	.	.	.	.	.	.	.	.	.	.
8AA-/	.	.	.	.	.	.	.	.	.	.	.	8f\L	.	.	.	.	.	.	.	.	.	.	.	.
8AA-/J	.	.	.	.	.	8g/	.	8ee-\	.	.	.	8e-\J	.	.	.	.	.	.	.	.	.	.	.	.
=81	=81	=81	=81	=81	=81	=81	=81	=81	=81	=81	=81	=81	=81	=81	=81	=81	=81	=81	=81	=81	=81	=81	=81	=81
.	.	.	.	.	.	.	.	8qee-/	.	.	.	.	.	.	.	.	.	.	.	.	.	.	.	.
8BB-/L	.	.	.	.	.	4f/	.	4dd\	.	4.ryy	4.ryy	8d\	.	4.ryy	4.ryy	4.ryy	8r	.	8r	.	.	.	.	.
8BBB-/J	.	.	.	.	.	.	.	.	.	.	.	8B-/	-nit	.	.	.	8r	.	8r	.	.	.	.	.
!	!	!	!	!	!	!	!	!LO:TX:b:i:t=dol&colon;	!	!	!	!	!	!	!	!	!	!	!	!	!	!	!	!
8r	.	.	.	.	.	8r	.	8b-\	.	.	.	8r	.	.	.	.	8b-\	.	8bb-\	.	.	.	.	.
!	!	!	!	!	!	!	!	!	!	!	!	!LO:LB:g=original	!	!	!	!	!	!	!	!	!	!	!LO:LB:g=original	!
=82	=82	=82	=82	=82	=82	=82	=82	=82	=82	=82	=82	=82	=82	=82	=82	=82	=82	=82	=82	=82	=82	=82	=82	=82
8r	.	8r	.	8r	.	8r	.	(32d/KLL	.	4.ryy	4.ryy	8r	.	4.ryy	4.ryy	4.ryy	(32d/KLL	.	(32dd\KLL	.	8r	.	8r	.
.	.	.	.	.	.	.	.	16.e-/JJ)	.	.	.	.	.	.	.	.	16.e-/JJ)	.	16.ee-\JJ)	.	.	.	.	.
!	!	!	!	!	!	!	!	!	!LO:DY:b:t=po&colon;	!	!	!	!	!	!	!	!	!	!	!	!	!	!	!
8r	.	8r	.	8r	.	8r	.	(32g/KLL	p	.	.	8r	.	.	.	.	(32g/KLL	.	(32gg\KLL	.	8r	.	8r	.
.	.	.	.	.	.	.	.	16.b-/JJ)	.	.	.	.	.	.	.	.	16.a-/JJ)	.	16.bb-\JJ)	.	.	.	.	.
8BB-/	.	8d\	.	8f\	.	8d/	.	(32a-/KLL	.	.	.	16a-\	Be-	.	.	.	(32a-/KLL	.	(32aa-\KLL	.	8dd\	.	8ff\	.
.	.	.	.	.	.	.	.	16.f/JJ)	.	.	.	.	.	.	.	.	16.f/JJ)	.	16.ff\JJ)	.	.	.	.	.
.	.	.	.	.	.	.	.	.	.	.	.	16f\	-ne-	.	.	.	.	.	.	.	.	.	.	.
!	!	!	!	!LO:LB:g=original	!	!	!	!	!	!	!	!	!	!	!	!	!	!	!	!	!	!	!	!
=83	=83	=83	=83	=83	=83	=83	=83	=83	=83	=83	=83	=83	=83	=83	=83	=83	=83	=83	=83	=83	=83	=83	=83	=83
8EE-/L	.	8e-\L	.	8g\L	.	8e-/L	.	8g/L	.	4.ryy	4.ryy	8g\	-dic-	4.ryy	4.ryy	4.ryy	8g/L	.	8gg\L	.	8ee-\L	.	8gg\L	.
8BB-/J	.	8d\J	.	8f\J	.	8d/J	.	8f/J	.	.	.	8f\	-tus	.	.	.	8f/J	.	8ff\J	.	8dd\J	.	8ff\J	.
!	!	!	!	!	!	!	!	!LO:TX:b:i:t=dol&colon;	!	!	!	!	!	!	!	!	!	!	!	!	!	!	!	!
8r	.	8r	.	8r	.	8r	.	8b-/	.	.	.	8r	.	.	.	.	8b-\	.	8bb-\	.	8r	.	8r	.
!	!	!	!	!	!	!	!	!LO:LB:g=original	!	!	!	!	!	!	!	!	!	!	!	!	!	!	!	!
=84	=84	=84	=84	=84	=84	=84	=84	=84	=84	=84	=84	=84	=84	=84	=84	=84	=84	=84	=84	=84	=84	=84	=84	=84
8r	.	8r	.	8r	.	8r	.	(32d/KLL	.	4.ryy	4.ryy	8r	.	4.ryy	4.ryy	4.ryy	(32d/KLL	.	(32dd\KLL	.	8r	.	8r	.
.	.	.	.	.	.	.	.	16.e-/JJ)	.	.	.	.	.	.	.	.	16.e-/JJ)	.	16.ee-\JJ)	.	.	.	.	.
8r	.	8r	.	8r	.	8r	.	(32g/KLL	p	.	.	8r	.	.	.	.	(32g-X/KLL	.	(32gg-X\KLL	.	8r	.	8r	.
.	.	.	.	.	.	.	.	16.b-/JJ)	.	.	.	.	.	.	.	.	16.a-/JJ)	.	16.bb-\JJ)	.	.	.	.	.
8BB-/	.	8d\	.	8f\	.	8d/	.	(32a-/KLL	.	.	.	8a-\	qui	.	.	.	(32a-/KLL	.	(32aa-\KLL	.	8dd\	.	8ff\	.
.	.	.	.	.	.	.	.	16.f/JJ)	.	.	.	.	.	.	.	.	16.f/JJ)	.	16.ff\JJ)	.	.	.	.	.
!LO:LB:g=original	!	!	!	!	!	!LO:LB:g=original	!	!	!	!	!	!	!	!	!	!	!	!	!	!	!	!	!	!
=85	=85	=85	=85	=85	=85	=85	=85	=85	=85	=85	=85	=85	=85	=85	=85	=85	=85	=85	=85	=85	=85	=85	=85	=85
8EE-/L	.	8e-\L	.	8g-X\L	.	8e-/L	.	8g/L	.	4.ryy	4.ryy	8g-X\	ve-	4.ryy	4.ryy	4.ryy	8g-X/L	.	8gg-X\L	.	8ee-\L	.	8gg-X\L	.
8BB-/J	.	8d\J	.	8f\J	.	8d/J	.	8f/J	.	.	.	8f\	-nit	.	.	.	8f/J	.	8ff\J	.	8dd\J	.	8ff\J	.
!	!	!	!	!	!	!	!	!LO:TX:b:i:t=dol&colon;	!	!	!	!	!	!	!	!	!	!	!	!	!	!	!	!
8r	.	8r	.	8r	.	8r	.	8b-/	.	.	.	8r	.	.	.	.	8b-\	.	8bb-\	.	8r	.	8r	.
!	!	!	!	!	!	!	!	!	!	!	!	!	!	!	!	!	!	!	!LO:LB:g=original	!	!	!	!	!
=86	=86	=86	=86	=86	=86	=86	=86	=86	=86	=86	=86	=86	=86	=86	=86	=86	=86	=86	=86	=86	=86	=86	=86	=86
4.r	.	8r	.	8r	.	8r	.	(8ee-\L	.	4.ryy	4.ryy	8r	.	4.ryy	4.ryy	4.ryy	(8ee-\L	.	(8ee-\L	.	8r	.	8r	.
.	.	8b-\L	.	(8b-\L	.	8r	.	8dd\	.	.	.	8r	.	.	.	.	8dd\	.	8dd\	.	8bb-\L	.	(8bb-\L	.
.	.	8ee-\J	.	8ee-\J)	.	8g/	.	8cc\J)	.	.	.	8cc\	in	.	.	.	8cc\J)	.	8cc\J)	.	8eee-\J	.	8eee-\J)	.
=87	=87	=87	=87	=87	=87	=87	=87	=87	=87	=87	=87	=87	=87	=87	=87	=87	=87	=87	=87	=87	=87	=87	=87	=87
8r	.	(8dd\L	.	(8dd\L	.	8f/L	.	(8b-/L	.	4.ryy	4.ryy	8b-\L	no-	4.ryy	4.ryy	4.ryy	(8b-\L	.	8bb-\L	.	(8ddd\L	.	(8ddd\L	.
8r	.	8cc\	.	8cc\	.	8e-/J	.	8a-/	.	.	.	8a-\	-mi-	.	.	.	8a-\	.	8aa-\	.	8ccc\	.	8ccc\	.
8E-\	.	8b-\J)	.	8b-\J)	.	8r	.	8g/J)	.	.	.	8g\J	-ne	.	.	.	8g\J)	.	8gg\J	.	8bb-\J)	.	8bb-\J)	.
!	!	!	!	!	!	!	!	!	!	!	!	!	!	!	!	!	!LO:LB:g=original	!	!	!	!LO:LB:g=original	!	!	!
=88	=88	=88	=88	=88	=88	=88	=88	=88	=88	=88	=88	=88	=88	=88	=88	=88	=88	=88	=88	=88	=88	=88	=88	=88
!LO:TX:t=P:problem=mixed beam	!	!LO:TX:t=P:problem=mixed beam	!	!LO:TX:t=P:problem=mixed beam	!	!	!	!	!	!	!	!	!	!	!	!	!LO:TX:a:t=1.	!	!LO:TX:a:t=1.	!	!	!	!	!
8A-\L	.	8a-\L	.	8a-\L	.	(8c/L	.	(8f/L	.	4.ryy	4.ryy	8f\L	Do-	4.ryy	4.ryy	4.ryy	4.r	.	4.r	.	8aa-\L	.	8aa-\L	.
8B-\	.	8b-\	.	8b-\	.	8B-/	.	8e-/	.	.	.	8e-\J	.	.	.	.	.	.	.	.	8bb-\	.	8bb-\	.
8BB-/J	.	8B-/J	.	8B-/J	.	8A-/J)	.	8d/J)	.	.	.	8d\	-mi-	.	.	.	.	.	.	.	8bb-\J	.	8bb-\J	.
!	!	!	!	!	!	!	!	!	!	!	!	!LO:LB:g=original	!	!	!	!	!	!	!	!	!	!	!	!
=89	=89	=89	=89	=89	=89	=89	=89	=89	=89	=89	=89	=89	=89	=89	=89	=89	=89	=89	=89	=89	=89	=89	=89	=89
4EE-/	.	4e-\	.	4e-\	.	8G/	.	8e-/	.	4.ryy	4.ryy	4e-\	-ni	4.ryy	4.ryy	4.ryy	8r	.	8r	.	4eee-\	.	4eee-\	.
.	.	.	.	.	.	16gg\LL	.	16bb-\LL	.	.	.	.	.	.	.	.	16gg\LL	.	16bb-\LL	.	.	.	.	.
.	.	.	.	.	.	16ff\JJ	.	16aa-\JJ	.	.	.	.	.	.	.	.	16ff\J	.	16aa-\J	.	.	.	.	.
!LO:TX:b:i:t=dol	!	!	!	!	!	!	!	!	!	!	!	!	!	!	!	!	!	!	!	!	!	!	!	!
8E-\	.	8r	.	8r	.	[8ee-\	.	[<8gg\	.	.	.	8r	.	.	.	.	[8ee-\J	.	[8gg\J	.	8r	.	8r	.
=90	=90	=90	=90	=90	=90	=90	=90	=90	=90	=90	=90	=90	=90	=90	=90	=90	=90	=90	=90	=90	=90	=90	=90	=90
!	!	!LO:TX:a:t=1.	!	!	!	!	!	!	!	!	!	!LO:TX:a:t=1.	!	!	!	!	!	!	!	!	!	!	!LO:TX:a:t=1.	!
4F\	.	4.r	.	4.r	.	8ee-\L]	.	8gg\L]	.	4.ryy	4.ryy	4.r	.	4.ryy	4.ryy	4.ryy	8ee-\L]	.	8gg\L]	.	4.r	.	4.r	.
.	.	.	.	.	.	16dd\L	.	16ff\L	.	.	.	.	.	.	.	.	(16dd\L	.	16ff\L	.	.	.	.	.
.	.	.	.	.	.	16cc\	.	16ee-\	.	.	.	.	.	.	.	.	16cc\	.	16ee-\	.	.	.	.	.
8FF/	.	.	.	.	.	16b-\	.	16dd\	.	.	.	.	.	.	.	.	16b-\	.	16dd\	.	.	.	.	.
.	.	.	.	.	.	16an\JJ	.	16cc\JJ	.	.	.	.	.	.	.	.	16a\JJ)	.	16cc\JJ	.	.	.	.	.
!	!	!LO:PB:g=original	!	!	!	!	!	!	!	!	!	!	!	!	!	!	!	!	!	!	!	!	!LO:LB:g=original	!
=91	=91	=91	=91	=91	=91	=91	=91	=91	=91	=91	=91	=91	=91	=91	=91	=91	=91	=91	=91	=91	=91	=91	=91	=91
(8BB-/L	p	8r	.	8r	.	8b-\|	.	8b-\|	.	4.ryy	4.ryy	8r	.	4.ryy	4.ryy	4.ryy	8b-\	.	(8b-\L	.	8r	.	8r	.
!	!	!	!	!	!	!	!	!	!LO:DY:b:t=po&colon;	!	!	!	!	!	!	!	!	!	!	!	!	!	!	!
8BB-/	.	(8B-/L	.	(8d\L	.	(8B-/L	p	(8d/L	p	.	.	8d\	Be-	.	.	.	(8b-\L	.	8dd\	.	(8b-\L	.	(8dd\L	.
8BB-/J)	.	8c/J)	.	8e-\J)	.	8c/J)	.	8e-/J)	.	.	.	8e-\	-ne-	.	.	.	8cc\J)	.	8ee-\J)	.	8cc\J)	.	8ee-\J)	.
!	!	!	!	!	!	!LO:LB:g=original	!	!LO:PB:g=original	!	!	!	!	!	!	!	!	!	!	!	!	!	!	!	!
=92	=92	=92	=92	=92	=92	=92	=92	=92	=92	=92	=92	=92	=92	=92	=92	=92	=92	=92	=92	=92	=92	=92	=92	=92
(8BB-/L	.	(8d\L	.	(8f\L	.	(8d/L	.	(8f/L	.	4.ryy	4.ryy	8f\	-dic-	4.ryy	4.ryy	4.ryy	(8dd\L	.	(8ff\L	.	(8dd\L	.	(8ff\L	.
8BB-/	.	8e-\	.	8g\	.	8e-/	.	8g/	.	.	.	8g\	-tus	.	.	.	8ee-\	.	8gg\	.	8ee-\	.	8gg\	.
8BB-/J)	.	8f\J)	.	8a-\J)	.	8f/J)	.	8a-/J)	.	.	.	8a-\	qui	.	.	.	8ff\J)	.	8aa-\J)	.	8ff\J)	.	8aa-\J)	.
!	!	!	!	!LO:LB:g=original	!	!	!	!	!	!	!	!	!	!	!	!	!	!	!	!	!	!	!	!
=93	=93	=93	=93	=93	=93	=93	=93	=93	=93	=93	=93	=93	=93	=93	=93	=93	=93	=93	=93	=93	=93	=93	=93	=93
(8BB-/L	.	(16e-\LL	.	16g\LL	.	16e-/LL	.	16g/LL	.	4.ryy	4.ryy	16g\LL	ve-	4.ryy	4.ryy	4.ryy	16ee-\LL	.	16gg\LL	.	(16ee-\LL	.	16gg\LL	.
.	.	16d\	.	16f\	.	16d/	.	16f/	.	.	.	16f\	.	.	.	.	16dd\	.	16ff\	.	16dd\	.	16ff\	.
8BB-/	.	16e-\	.	16g\	.	16e-/	.	16g/	.	.	.	16g\	.	.	.	.	16ee-\	.	16gg\	.	16ee-\	.	16gg\	.
.	.	16f\JJ)	.	16a-\JJ	.	16f/J	.	16a-/J	.	.	.	16a-\J	.	.	.	.	16ff\J	.	16aa-\J	.	16ff\JJ)	.	16aa-\JJ	.
8BB-/J)	.	8g\	.	[8b-\	.	8g/J	.	[>8b-/J	.	.	.	8b-\J	.	.	.	.	[8gg\J	.	[<8bb-\J	.	8gg\	.	[8bb-\	.
=94	=94	=94	=94	=94	=94	=94	=94	=94	=94	=94	=94	=94	=94	=94	=94	=94	=94	=94	=94	=94	=94	=94	=94	=94
(8BB-/L	.	(8g\L	.	8b-\L]	.	8g/L	.	8b-/L]	.	4.ryy	4.ryy	8b-\L	.	4.ryy	4.ryy	4.ryy	8gg\L]	.	8bb-\L]	.	(8gg\L	.	8bb-\L]	.
8BB-/	.	8f\	.	8a-\	.	8f/	.	8a-/	.	.	.	8a-\	.	.	.	.	(8ff\	.	8aa-\	.	8ff\	.	8aa-\	.
8BB-/J)	.	8e-\J)	.	8g\J	.	8e-/J	.	8g/J	.	.	.	8g\J	.	.	.	.	8ee-\J)	.	8gg\J	.	8ee-\J)	.	8gg\J	.
!LO:LB:g=original	!	!	!	!	!	!	!	!	!	!	!	!	!	!	!	!	!	!	!	!	!	!	!	!
=95	=95	=95	=95	=95	=95	=95	=95	=95	=95	=95	=95	=95	=95	=95	=95	=95	=95	=95	=95	=95	=95	=95	=95	=95
8BB-/L	.	8e-\L	.	8g\L	.	8e-/L	.	8g/L	.	4.ryy	4.ryy	8g\	.	4.ryy	4.ryy	4.ryy	8ee-\L	.	8gg\L	.	8ee-\L	.	8gg\L	.
8BBB-/J	.	8d\J	.	8f\J	.	8d/	.	8f/J	.	.	.	8f\	-nit	.	.	.	8dd\J	.	8ff\J	.	8dd\J	.	8ff\J	.
!	!	!	!	!	!	!LO:TX:a:i:t=dol&colon;	!	!	!	!	!	!	!	!	!	!	!	!	!	!	!	!	!	!
8r	.	8r	.	8r	.	8B-/J	.	8B-/	.	.	.	8B-/	in	.	.	.	8r	.	8r	.	8r	.	8r	.
!	!	!	!	!	!	!	!	!	!	!	!	!	!	!	!	!	!	!	!LO:LB:g=original	!	!	!	!	!
=96	=96	=96	=96	=96	=96	=96	=96	=96	=96	=96	=96	=96	=96	=96	=96	=96	=96	=96	=96	=96	=96	=96	=96	=96
!	!	!LO:TX:a:t=4.	!	!LO:N:vis=00	!	!	!	!LO:TX:b:i:t=dol&colon;	!	!	!	!	!	!	!	!	!LO:TX:a:t=4.	!	!	!	!LO:TX:a:t=4	!	!	!
!	!	!LO:N:vis=00	!	!	!	!	!	!	!	!	!	!	!	!	!	!	!LO:N:vis=00	!	!LO:N:vis=00	!	!LO:N:vis=00	!	!LO:N:vis=00	!
8r	.	1.r	.	1.r	.	4e-/	.	4g/	.	4.ryy	4.ryy	4e-\	no-	4.ryy	4.ryy	4.ryy	1.r	.	1.r	.	1.r	.	1.r	.
8E-\L	.	.	.	.	.	.	.	.	.	.	.	.	.	.	.	.	.	.	.	.	.	.	.	.
8D\J	.	.	.	.	.	8e-/	.	8g/	.	.	.	8e-\	-mi-	.	.	.	.	.	.	.	.	.	.	.
!	!	!	!	!	!	!	!	!	!	!	!	!LO:PB:g=original	!	!	!	!	!	!	!	!	!	!	!	!
=97	=97	=97	=97	=97	=97	=97	=97	=97	=97	=97	=97	=97	=97	=97	=97	=97	=97	=97	=97	=97	=97	=97	=97	=97
8C/L	.	.	.	.	.	4e-/	.	4f/	.	4.ryy	4.ryy	4.e-\	-ne	4.ryy	4.ryy	4.ryy	.	.	.	.	.	.	.	.
8BB-/	.	.	.	.	.	.	.	.	.	.	.	.	.	.	.	.	.	.	.	.	.	.	.	.
8AAn/J	.	.	.	.	.	8e-/	.	8f/	.	.	.	.	.	.	.	.	.	.	.	.	.	.	.	.
=98	=98	=98	=98	=98	=98	=98	=98	=98	=98	=98	=98	=98	=98	=98	=98	=98	=98	=98	=98	=98	=98	=98	=98	=98
(4.BB-/	.	.	.	.	.	4e-/	.	4g/	.	4.ryy	4.ryy	4.e-\	Do-	4.ryy	4.ryy	4.ryy	.	.	.	.	.	.	.	.
.	.	.	.	.	.	8r	.	8r	.	.	.	.	.	.	.	.	.	.	.	.	.	.	.	.
=99	=99	=99	=99	=99	=99	=99	=99	=99	=99	=99	=99	=99	=99	=99	=99	=99	=99	=99	=99	=99	=99	=99	=99	=99
!	!	!	!	!	!	!	!	!LO:TX:a:t=1.	!	!	!	!	!	!	!	!	!	!	!	!	!	!	!	!
4.BB-/)	.	.	.	.	.	4.r	.	4.r	.	4.ryy	4.ryy	4f\	.	4.ryy	4.ryy	4.ryy	.	.	.	.	.	.	.	.
.	.	.	.	.	.	.	.	.	.	.	.	8e-\	-mi-	.	.	.	.	.	.	.	.	.	.	.
!	!	!	!	!	!	!	!	!LO:LB:g=original	!	!	!	!	!	!	!	!	!	!	!	!	!LO:LB:g=original	!	!	!
=100	=100	=100	=100	=100	=100	=100	=100	=100	=100	=100	=100	=100	=100	=100	=100	=100	=100	=100	=100	=100	=100	=100	=100	=100
4EE-/	.	8r	.	8r	.	8r	.	8r	.	4.ryy	4.ryy	4.e-\	-ni	4.ryy	4.ryy	4.ryy	8r	.	8r	.	8r	.	8r	.
.	.	8r	.	8r	.	8r	.	8r	.	.	.	.	.	.	.	.	8r	.	8r	.	8r	.	8r	.
8E-\	p	8e-\	.	8g\	.	8e-/	p	8g/	.	.	.	.	.	.	.	.	8e-/	.	8g/	.	8ee-\	.	8gg\	.
!	!	!	!	!	!	!LO:LB:g=original	!	!	!	!	!	!	!	!	!	!	!LO:LB:g=original	!	!	!	!	!	!	!
=101	=101	=101	=101	=101	=101	=101	=101	=101	=101	=101	=101	=101	=101	=101	=101	=101	=101	=101	=101	=101	=101	=101	=101	=101
!	!	!	!	!	!	!	!	!	!	!	!	!LO:TX:a:t=18	!	!	!	!	!	!	!	!	!	!	!	!
!	!	!	!	!	!	!	!	!	!	!	!	!LO:N:vis=00	!	!	!	!	!	!	!	!	!	!	!	!
(8E-\L	.	16.f\LL	.	16.a-\LL	.	16.f/LL	.	16.a-/LL	.	4.ryy	4.ryy	1.r	.	4.ryy	4.ryy	4.ryy	(16.f/LL	.	(16.a-/LL	.	16.ff\LL	.	16.aa-\LL	.
.	.	32e-\K	.	32g\K	.	32e-/K	.	32g/K	.	.	.	.	.	.	.	.	32e-/K	.	32g/K	.	32ee-\K	.	32gg\K	.
8E-\	.	16.f\	.	16.a-\	.	16.f/	.	16.a-/	.	.	.	.	.	.	.	.	16.f/	.	16.a-/	.	16.ff\	.	16.aa-\	.
.	.	32g\JJk	.	32b-\JJk	.	32g/JJk	.	32b-/JJk	.	.	.	.	.	.	.	.	32g/JJk)	.	32b-/JJk)	.	32gg\JJk	.	32bb-\JJk	.
8E-\J)	.	16a-\	.	16cc\	.	16a-/	.	16cc\	.	.	.	.	.	.	.	.	16a-/	.	16cc/	.	16aa-\	.	16ccc\	.
.	.	16r	.	16r	.	16r	.	16r	.	.	.	.	.	.	.	.	16r	.	16r	.	16r	.	16r	.
*	*	*	*	*	*	*	*	*	*	*	*	*	*	*	*	*	*	*	*	*	*	*	*custos	*
!	!	!LO:LB:g=original	!	!	!	!	!	!	!	!	!	!	!	!	!	!	!	!	!	!	!	!	!LO:LB:g=original	!
=102	=102	=102	=102	=102	=102	=102	=102	=102	=102	=102	=102	=102	=102	=102	=102	=102	=102	=102	=102	=102	=102	=102	=102	=102
(8E-\L	.	16.e-\LL	.	16.g\LL	.	16.e-/LL	.	16.g/LL	.	4.ryy	4.ryy	.	.	4.ryy	4.ryy	4.ryy	16.e-/LL	.	16.g/LL	.	16.ee-\LL	.	16.gg\LL	.
!	!	!	!	!	!	!	!	!	!	!	!	!	!	!	!	!	!	!	!LO:TX:b:t=g	!	!	!	!	!
!	!	!	!	!	!	!	!	!	!	!	!	!	!	!	!	!	!	!	!LO:SIC:o:s=:v:niejednoznaczny zapis	!	!	!	!	!
.	.	32d\K	.	32f\K	.	32d/K	.	32f/K	.	.	.	.	.	.	.	.	32d/K	.	32f/K	.	32dd\K	.	32ff\K	.
8E-\	.	16.e-\	.	16.g\	.	16.e-/	.	16.g/	.	.	.	.	.	.	.	.	16.e-/	.	16.g/	.	16.ee-\	.	16.gg\	.
.	.	32f\JJk	.	32a-\JJk	.	32f/JJk	.	32a-/JJk	.	.	.	.	.	.	.	.	32f/JJk	.	32a-/JJk	.	32ff\JJk	.	32aa-\JJk	.
8E-\J)	.	16g\	.	16b-\	.	16g/	.	16b-\	.	.	.	.	.	.	.	.	16g/	.	16b-/	.	16gg\	.	16bb-\	.
.	.	16r	.	16r	.	16r	.	16r	.	.	.	.	.	.	.	.	16r	.	16r	.	16r	.	16r	.
=103	=103	=103	=103	=103	=103	=103	=103	=103	=103	=103	=103	=103	=103	=103	=103	=103	=103	=103	=103	=103	=103	=103	=103	=103
(8E-\L	.	(16g\LL	.	16b-\LL	.	16g/LL	.	16b-\LL	.	4.ryy	4.ryy	.	.	4.ryy	4.ryy	4.ryy	16g/LL	.	16b-\LL	.	(16gg\LL	.	16bb-\LL	.
.	.	16a-\JJ)	.	16cc\	.	16a-/	.	16cc\	.	.	.	.	.	.	.	.	16a-/	.	16cc\	.	16aa-\JJ)	.	16ccc\	.
8E-\	.	(16a-\LL	.	16cc\	.	16a-/	.	16cc\	.	.	.	.	.	.	.	.	16a-/	.	16cc\	.	(16aa-\LL	.	16ccc\	.
.	.	16g\JJ)	.	16b-\	.	16g/	.	16b-\	.	.	.	.	.	.	.	.	16g/	.	16b-\	.	16gg\JJ)	.	16bb-\	.
8E-\J)	.	(16f\LL	.	16a-\	.	16f/	.	16a-\	.	.	.	.	.	.	.	.	16f/	.	16a-\	.	(16ff\LL	.	16aa-\	.
.	.	16e-\JJ)	.	16g\JJ	.	16e-/JJ	.	16g\JJ	.	.	.	.	.	.	.	.	16e-/JJ	.	16g\JJ	.	16ee-\JJ)	.	16gg\JJ	.
!	!	!	!	!LO:LB:g=original	!	!	!	!	!	!	!	!	!	!	!	!	!	!	!	!	!	!	!	!
=104	=104	=104	=104	=104	=104	=104	=104	=104	=104	=104	=104	=104	=104	=104	=104	=104	=104	=104	=104	=104	=104	=104	=104	=104
8BB-/L	.	8e-\L	.	8g\L	.	8e-/L	.	8g/L	.	4.ryy	4.ryy	.	.	4.ryy	4.ryy	4.ryy	8e-/L	.	8g/L	.	8ee-\L	.	8gg\L	.
8BBB-/J	.	8d\J	.	8f\J	.	8d/J	.	8f/J	.	.	.	.	.	.	.	.	8d/J	.	8f/J	.	8dd\J	.	8ff\J	.
!	!	!	!	!	!	!	!	!LO:TX:b:i:t=dol&colon;	!	!	!	!	!	!	!	!	!	!	!	!	!	!	!	!
8r	.	8r	.	8b-\	.	8r	.	8b-\	.	.	.	.	.	.	.	.	8r	.	8r	.	8r	.	8bb-\	.
!	!	!	!	!	!	!	!	!LO:LB:g=original	!	!	!	!	!	!	!	!	!	!	!	!	!	!	!	!
=105	=105	=105	=105	=105	=105	=105	=105	=105	=105	=105	=105	=105	=105	=105	=105	=105	=105	=105	=105	=105	=105	=105	=105	=105
!	!	!	!	!	!	!	!	!	!LO:DY:b:t=po&colon;	!	!	!LO:N:vis=00	!	!	!	!	!	!	!	!	!	!	!	!
8r	.	8r	.	(32d\KLL	.	8r	.	(32d/KLL	p	4.ryy	4.ryy	1.r	.	4.ryy	4.ryy	4.ryy	8r	.	(32dd\KLL	.	8r	.	(32dd\KLL	.
.	.	.	.	16.e-\JJ)	.	.	.	16.e-/JJ)	.	.	.	.	.	.	.	.	.	.	16.ee-\JJ)	.	.	.	16.ee-\JJ)	.
8r	.	8r	.	(32g-X\KLL	.	8r	.	(32g-X/KLL	.	.	.	.	.	.	.	.	8r	.	(32gg\KLL	.	8r	.	(32gg-X\KLL	.
.	.	.	.	16.b-\JJ)	.	.	.	16.b-/JJ)	.	.	.	.	.	.	.	.	.	.	16.bb-\JJ)	.	.	.	16.bb-\JJ)	.
8BB-/	.	8d\	.	(32a-\KLL	.	8d/	.	(32a-/KLL	.	.	.	.	.	.	.	.	(32ff\KLL	.	(32aa-\KLL	.	8dd\	.	(32aa-\KLL	.
.	.	.	.	16.f\JJ)	.	.	.	16.f/JJ)	.	.	.	.	.	.	.	.	16.dd\JJ)	.	16.ff\JJ)	.	.	.	16.ff\JJ)	.
!LO:LB:g=original	!	!	!	!	!	!	!	!	!	!	!	!	!	!	!	!	!	!	!LO:LB:g=original	!	!LO:LB:g=original	!	!	!
=106	=106	=106	=106	=106	=106	=106	=106	=106	=106	=106	=106	=106	=106	=106	=106	=106	=106	=106	=106	=106	=106	=106	=106	=106
8EE-/L	.	8e-\L	.	8g\L	.	8e-/L	.	8g/L	.	4.ryy	4.ryy	.	.	4.ryy	4.ryy	4.ryy	8ee-\L	.	8gg\L	.	8ee-\L	.	8gg\L	.
8BB-/J	.	8d\J	.	8f\J	.	8d/J	.	8f/J	.	.	.	.	.	.	.	.	8dd\J	.	8ff\J	.	8dd\J	.	8ff\J	.
!	!	!	!	!	!	!	!	!LO:TX:b:i:t=dol&colon;	!	!	!	!	!	!	!	!	!	!	!	!	!	!	!	!
8r	.	8r	.	8cc\	.	8r	.	8cc\	.	.	.	.	.	.	.	.	8r	.	8bb-\	.	8r	.	8bb-\	.
!	!	!	!	!	!	!LO:LB:g=original	!	!	!	!	!	!	!	!	!	!	!	!	!	!	!	!	!	!
=107	=107	=107	=107	=107	=107	=107	=107	=107	=107	=107	=107	=107	=107	=107	=107	=107	=107	=107	=107	=107	=107	=107	=107	=107
!	!	!	!	!	!	!	!	!	!LO:DY:b:t=po&colon;	!	!	!	!	!	!	!	!	!	!	!	!	!	!	!
8r	.	8r	.	(32d\KLL	.	8r	.	(32d/KLL	p	4.ryy	4.ryy	.	.	4.ryy	4.ryy	4.ryy	8r	.	(32dd\KLL	.	8r	.	(32dd\KLL	.
.	.	.	.	16.e-\JJ)	.	.	.	16.e-/JJ)	.	.	.	.	.	.	.	.	.	.	16.ee-\JJ)	.	.	.	16.ee-\JJ)	.
8r	.	8r	.	(32g-X\KLL	.	8r	.	(32g-X/KLL	.	.	.	.	.	.	.	.	8r	.	(32gg-X\KLL	.	8r	.	(32gg-X\KLL	.
.	.	.	.	16.b-\JJ)	.	.	.	16.b-/JJ)	.	.	.	.	.	.	.	.	.	.	16.bb-\JJ)	.	.	.	16.bb-\JJ)	.
8BB-/	.	8d\	.	(32a-\KLL	.	8d/	.	(32a-/KLL	.	.	.	.	.	.	.	.	32ff\KLL	.	(32aa-\KLL	.	8dd\	.	(32aa-\KLL	.
.	.	.	.	16.f\JJ)	.	.	.	16.f/JJ)	.	.	.	.	.	.	.	.	16.dd\JJ	.	16.ff\JJ)	.	.	.	16.ff\JJ)	.
!	!	!	!	!	!	!	!	!	!	!	!	!	!	!	!	!	!LO:LB:g=original	!	!	!	!	!	!LO:LB:g=original	!
=108	=108	=108	=108	=108	=108	=108	=108	=108	=108	=108	=108	=108	=108	=108	=108	=108	=108	=108	=108	=108	=108	=108	=108	=108
8EE-/L	.	8e-\L	.	8g-X\L	.	8e-/L	.	8g-X/L	.	4.ryy	4.ryy	.	.	4.ryy	4.ryy	4.ryy	8ee-\L	.	8gg-X\L	.	8ee-\L	.	8gg-X\L	.
8BB-/J	.	8d\J	.	8f\J	.	8d/J	.	8f/J	.	.	.	.	.	.	.	.	8dd\J	.	8ff\J	.	8dd\J	.	8ff\J	.
!	!	!	!	!	!	!	!	!LO:TX:b:i:t=dol	!	!	!	!	!	!	!	!	!	!	!	!	!	!	!	!
8r	.	8B-/	.	8cc\	.	8r	.	8b-\	.	.	.	.	.	.	.	.	8b-\	.	8b-\	.	8b-\	.	8bb-\	.
=109	=109	=109	=109	=109	=109	=109	=109	=109	=109	=109	=109	=109	=109	=109	=109	=109	=109	=109	=109	=109	=109	=109	=109	=109
!LO:TX:b:t=dol&colon;	!	!	!	!	!	!	!	!	!	!	!	!	!	!	!	!	!	!	!	!	!	!	!	!
!	!	!	!	!	!	!	!	!	!	!	!	!LO:N:vis=00	!	!	!	!	!	!	!	!	!	!	!	!
8r	.	(8e-\L	.	(8ee-\L	.	8r	.	(8ee-\L	.	4.ryy	4.ryy	1.r	.	4.ryy	4.ryy	4.ryy	(8ee-\L	.	(8ee-\L	.	(8ee-\L	.	(8eee-\L	.
8BB-/L	.	8d\	.	8dd\	.	8r	.	8dd\	.	.	.	.	.	.	.	.	8dd\	.	8dd\	.	8dd\	.	8ddd\	.
!	!	!	!	!	!	!LO:TX:b:i:t=dol&colon;	!	!	!	!	!	!	!	!	!	!	!	!	!	!	!	!	!	!
8E-/J	.	8c\J)	.	8cc\J)	.	8g/	.	8cc\J)	.	.	.	.	.	.	.	.	8cc\J)	.	8cc\J)	.	8cc\J)	.	8ccc\J)	.
!	!	!LO:LB:g=original	!	!LO:LB:g=original	!	!	!	!LO:LB:g=original	!	!	!	!	!	!	!	!	!	!	!	!	!	!	!	!
=110	=110	=110	=110	=110	=110	=110	=110	=110	=110	=110	=110	=110	=110	=110	=110	=110	=110	=110	=110	=110	=110	=110	=110	=110
!	!	!	!	!	!	!	!	!	!LO:DY:b:t=po&colon;	!	!	!	!	!	!	!	!	!	!	!	!	!	!	!
(8D/L	.	(8B-/L	.	(8b-\L	.	(8f/L	.	(8b-\L	p	4.ryy	4.ryy	.	.	4.ryy	4.ryy	4.ryy	(8b-\L	.	(8bb-\L	.	(8bb-\L	.	(8bb-\L	.
8C/	.	8A-/	.	8a-\	.	8e-/	.	8a-\	.	.	.	.	.	.	.	.	8a-\	.	8aa-\	.	8aa-\	.	8aa-\	.
8BB-/J)	.	8G/J)	.	8g\J)	.	8d/J)	.	8g\J)	.	.	.	.	.	.	.	.	8g\J)	.	8gg\J)	.	8gg\J)	.	8gg\J)	.
=111	=111	=111	=111	=111	=111	=111	=111	=111	=111	=111	=111	=111	=111	=111	=111	=111	=111	=111	=111	=111	=111	=111	=111	=111
!	!	!	!	!	!	!	!	!	!	!	!	!	!	!	!	!	!	!	!	!	!	!	!LO:SIC:o=:v: brak taktu	!
8AA-/L	.	(8A-/L	.	(8a-\L	.	(8c/L	.	(8f/L	.	4.ryy	4.ryy	.	.	4.ryy	4.ryy	4.ryy	16f/LL	.	(16ff\LL	.	(8aa-\L	.	4.ryy	.
.	.	.	.	.	.	.	.	.	.	.	.	.	.	.	.	.	16g/JJ	.	16gg\JJ)	.	.	.	.	.
8BB-/	.	8G/	.	8g\	.	8B-/	.	8e-/	.	.	.	.	.	.	.	.	8e-/L	f	8ee-\L	.	8gg\	.	.	.
8BBB-/J	.	8F/J)	.	8f\J)	.	8A-/J)	.	8d/J)	.	.	.	.	.	.	.	.	8d/J	.	8ddt\J	.	8ff\J)	.	.	.
=112	=112	=112	=112	=112	=112	=112	=112	=112	=112	=112	=112	=112	=112	=112	=112	=112	=112	=112	=112	=112	=112	=112	=112	=112
4GG/	.	8e-\|	.	8e-\	.	8e-/	.	8e-/	.	4.ryy	4.ryy	.	.	4.ryy	4.ryy	4.ryy	8e-/	.	8ee-\	.	8ee-\|	.	8ee-\	.
.	.	(8e-\L	.	(8g\L	.	(8e-/L	.	(8g/L	.	.	.	.	.	.	.	.	(8ee-\L	.	(8gg\L	.	(8ee-\L	.	(8gg\L	.
8r	.	8f\J)	.	8a-\J)	.	8f/J)	.	8a-/J)	.	.	.	.	.	.	.	.	8ff\J)	.	8aa-\J)	.	8ff\J)	.	8aa-\J)	.
=113	=113	=113	=113	=113	=113	=113	=113	=113	=113	=113	=113	=113	=113	=113	=113	=113	=113	=113	=113	=113	=113	=113	=113	=113
!	!	!	!	!	!	!	!	!	!	!	!	!LO:N:vis=00	!	!	!	!	!	!	!	!	!	!	!	!
4E-\	.	8r	.	8r	.	8r	.	8r	.	4.ryy	4.ryy	1.r	.	4.ryy	4.ryy	4.ryy	8r	.	8r	.	8r	.	8r	.
.	.	(8g\L	.	(8b-\L	.	8g/L	.	(8b-\L	.	.	.	.	.	.	.	.	8gg\L	.	(8bb-\L	.	(8gg\L	.	(8bb-\L	.
8r	.	8a-\J)	.	8cc\J)	.	8a-/J	.	8cc\J)	.	.	.	.	.	.	.	.	8aa-\J	.	8ccc\J)	.	8aa-\J)	.	8ccc\J)	.
!	!	!	!	!	!	!	!	!	!	!	!	!	!	!	!	!	!	!	!LO:LB:g=original	!	!LO:LB:g=original	!	!	!
=114	=114	=114	=114	=114	=114	=114	=114	=114	=114	=114	=114	=114	=114	=114	=114	=114	=114	=114	=114	=114	=114	=114	=114	=114
4E-\	.	8r	.	8r	.	8r	.	8r	.	4.ryy	4.ryy	.	.	4.ryy	4.ryy	4.ryy	8r	.	8r	.	8r	.	8r	.
.	.	(8d\L	.	(8f\L	.	8d/L	.	(8f/L	.	.	.	.	.	.	.	.	8dd\L	.	(8ff\L	.	(8dd\L	.	(8ff\L	.
8r	.	8e-\J)	.	8g\J)	.	8e-/J	.	8g/J)	.	.	.	.	.	.	.	.	8ee-\J	.	8gg\J)	.	8ee-\J)	.	8gg\J)	.
!	!	!	!	!	!	!LO:LB:g=original	!	!	!	!	!	!	!	!	!	!	!	!	!	!	!	!	!	!
=115	=115	=115	=115	=115	=115	=115	=115	=115	=115	=115	=115	=115	=115	=115	=115	=115	=115	=115	=115	=115	=115	=115	=115	=115
8AA-/L	.	8f\L	.	8a-\L	.	8f/L	.	(8a-/L	.	4.ryy	4.ryy	.	.	4.ryy	4.ryy	4.ryy	8ff\	.	32aa-\LLL	.	8ff\L	.	8aa-\L	.
.	.	.	.	.	.	.	.	.	.	.	.	.	.	.	.	.	.	.	32gg\J	.	.	.	.	.
.	.	.	.	.	.	.	.	.	.	.	.	.	.	.	.	.	.	.	16ff\JJ	.	.	.	.	.
8BB-/	.	8e-\	.	8g\	.	8e-/	.	8g/	.	.	.	.	.	.	.	.	8ee-\L	.	8gg\L	.	8ee-\	.	8gg\	.
8BBB-/J	.	8d\J	.	8f\J	.	8d/J	.	8f/J)	.	.	.	.	.	.	.	.	8dd\J	.	8ff\J	.	8dd\J	.	8ff\J	.
!LO:LB:g=original	!	!	!	!	!	!	!	!	!	!	!	!	!	!	!	!	!	!	!	!	!	!	!	!
=116	=116	=116	=116	=116	=116	=116	=116	=116	=116	=116	=116	=116	=116	=116	=116	=116	=116	=116	=116	=116	=116	=116	=116	=116
!	!	!	!	!	!	!	!	!	!	!	!	!	!	!	!	!	!LO:TX:t=P:problem=mixed beam	!	!	!	!	!	!	!
(8EE-/L	.	8e-\L	.	8e-\L	.	8e-/L	.	8e-/L	.	4.ryy	4.ryy	.	.	4.ryy	4.ryy	4.ryy	8ee-\L	.	8ee-\L	.	8ee-\L	.	8ee-\L	.
8EE-/	.	8g\	.	8b-\	.	8g/	.	8b-/	.	.	.	.	.	.	.	.	8g/	.	8b-\	.	8gg\	.	8bb-\	.
8EE-/J)	.	8g\J	.	8b-\J	.	8g/J	.	8b-/J	.	.	.	.	.	.	.	.	8g/J	.	8b-\J	.	8gg\J	.	8bb-\J	.
*	*	*	*	*	*	*	*	*custos	*	*	*	*	*	*	*	*	*	*	*	*	*	*	*	*
!	!	!	!	!	!	!	!	!LO:LB:g=original	!	!	!	!	!	!	!	!	!LO:LB:g=original	!	!	!	!	!	!	!
=117	=117	=117	=117	=117	=117	=117	=117	=117	=117	=117	=117	=117	=117	=117	=117	=117	=117	=117	=117	=117	=117	=117	=117	=117
!	!	!	!	!	!	!	!	!	!	!	!	!LO:N:vis=0	!	!	!	!	!	!	!	!	!	!	!	!
(8EE-/L	.	16g\LL	.	(16b-\LL	.	16g/LL	.	16b-/LL	.	4.ryy	4.ryy	2.r	.	4.ryy	4.ryy	4.ryy	(16g/LL	.	(16b-\LL	.	16gg\LL	.	(16bb-\LL	.
.	.	16a-\	.	16cc\	.	16a-/	.	16cc/	.	.	.	.	.	.	.	.	16a-/	.	16cc\	.	16aa-\	.	16ccc\	.
8EE-/	.	16g\	.	16b-\	.	16g/	.	16b-/	.	.	.	.	.	.	.	.	16g/	.	16b-\	.	16gg\	.	16bb-\	.
.	.	16f\	.	16a-\	.	16f/	.	16a-/	.	.	.	.	.	.	.	.	16f/	.	16a-\	.	16ff\	.	16aa-\	.
8EE-/J)	.	16e-\	.	16g\	.	16e-/	.	16g/	.	.	.	.	.	.	.	.	16e-/	.	16g\	.	16ee-\	.	16gg\	.
.	.	16d\JJ	.	16f\JJ)	.	16d/JJ	.	16f/JJ	.	.	.	.	.	.	.	.	16d/JJ)	.	16f\JJ)	.	16dd\JJ	.	16ff\JJ)	.
!	!	!	!	!	!	!	!	!	!	!	!	!	!	!	!	!	!	!	!	!	!	!	!LO:LB:g=original	!
=118	=118	=118	=118	=118	=118	=118	=118	=118	=118	=118	=118	=118	=118	=118	=118	=118	=118	=118	=118	=118	=118	=118	=118	=118
.	.	8qd/	.	8qf/	.	8qd/	.	8qf/	.	.	.	.	.	.	.	.	8qd/	.	8qf/	.	8qdd\	.	8qff\	.
4.EE-/	.	4.e-\	.	4.e-\	.	4.e-/	.	4.e-/	.	4.ryy	4.ryy	.	.	4.ryy	4.ryy	4.ryy	4.e-/	.	4.e-/	.	4.ee-\	.	4.ee-\	.
==	==	==	==	==	==	==	==	==	==	==	==	==	==	==	==	==	==	==	==	==	==	==	==	==
*-	*-	*-	*-	*-	*-	*-	*-	*-	*-	*-	*-	*-	*-	*-	*-	*-	*-	*-	*-	*-	*-	*-	*-	*-
!!!system-decoration: [(s1,s2,s3,s4)][(s5,s6)][(s7,s8,s9,s10)][(s11,s12,s13,s14)][(s15)]
!!!RDF**kern: > = above
!!!RDF**kern: < = below
!!!RDF**dynam: p = po&colon;
!!!RDF**dynam: f = fr
!!!ENC: Tomasz Grochalski
!!!END: 2020-07-12
!!!EED: Leszek Kubiak
!!!EST: 2020-09-24
!!!RDF**kern: | = vertical stroke
